;FLAVOR:Marlin
;TIME:3816
;Filament used: 2.26646m
;Layer height: 0.12
;MINX:75.295
;MINY:95.85
;MINZ:0.12
;MAXX:159.705
;MAXY:139.147
;MAXZ:3.84
;TARGET_MACHINE.NAME:Creality Ender-3
;Generated with Cura_SteamEngine 5.6.0
M140 S65
M105
M190 S65
M104 S205
M105
M109 S205
M82 ;absolute extrusion mode
; Ender 3 Custom Start G-code
G92 E0 ; Reset Extruder
G28 ; Home all axes
G29 ; Autolevel
G1 Z2.0 F3000 ; Move Z Axis up little to prevent scratching of Heat Bed
G1 X0.1 Y20 Z0.3 F5000.0 ; Move to start position
G1 X0.1 Y200.0 Z0.3 F1500.0 E15 ; Draw the first line
G1 X0.4 Y200.0 Z0.3 F5000.0 ; Move to side a little
G1 X0.4 Y20 Z0.3 F1500.0 E30 ; Draw the second line
G92 E0 ; Reset Extruder
G1 Z2.0 F3000 ; Move Z Axis up little to prevent scratching of Heat Bed
G1 X5 Y20 Z0.3 F5000.0 ; Move over to prevent blob squish
G92 E0
G92 E0
G1 F2700 E-5
;LAYER_COUNT:32
;LAYER:0
M107
M205 X8 Y8
G0 F6000 X78.982 Y97.839 Z0.12
;TYPE:SKIRT
G1 F2700 E0
G1 F1200 X79.981 Y97.162 E0.02408
G1 X80.543 Y96.853 E0.03688
G1 X81.245 Y96.54 E0.05222
G1 X82.125 Y96.237 E0.07079
G1 X83.18 Y95.991 E0.09241
G1 X84.227 Y95.864 E0.11346
G1 X84.548 Y95.85 E0.11987
G1 X150.249 Y95.85 E1.43101
G1 X151.27 Y95.908 E1.45141
G1 X151.729 Y95.974 E1.46067
G1 X152.795 Y96.216 E1.48248
G1 X153.801 Y96.561 E1.50371
G1 X154.512 Y96.888 E1.51932
G1 X155.353 Y97.367 E1.53864
G1 X156.113 Y97.914 E1.55732
G1 X156.767 Y98.486 E1.57466
G1 X157.343 Y99.087 E1.59128
G1 X158.092 Y100.06 E1.61578
G1 X158.559 Y100.834 E1.63382
G1 X158.906 Y101.545 E1.64961
G1 X159.215 Y102.352 E1.66685
G1 X159.449 Y103.157 E1.68358
G1 X159.555 Y103.663 E1.6939
G1 X159.691 Y104.831 E1.71736
G1 X159.705 Y105.35 E1.72773
G1 X159.688 Y130.142 E2.22248
G1 X159.608 Y131.003 E2.23973
G1 X159.464 Y131.784 E2.25558
G1 X159.275 Y132.469 E2.26976
G1 X158.977 Y133.289 E2.28717
G1 X158.584 Y134.118 E2.30548
G1 X158.124 Y134.893 E2.32347
G1 X157.708 Y135.472 E2.33769
G1 X157.14 Y136.138 E2.35516
G1 X156.694 Y136.585 E2.36776
G1 X155.76 Y137.362 E2.39201
G1 X155.332 Y137.651 E2.40232
G1 X153.93 Y138.395 E2.43399
G1 X153.426 Y138.59 E2.44477
G1 X152.276 Y138.918 E2.46864
G1 X151.731 Y139.024 E2.47972
G1 X150.439 Y139.147 E2.50562
G1 X84.147 Y139.121 E3.82855
G1 X83.44 Y139.048 E3.84273
G1 X82.415 Y138.847 E3.86358
G1 X81.959 Y138.717 E3.87304
G1 X80.968 Y138.344 E3.89417
G1 X80.487 Y138.117 E3.90478
G1 X79.472 Y137.518 E3.9283
G1 X78.932 Y137.123 E3.94165
G1 X78.156 Y136.445 E3.96222
G1 X77.824 Y136.104 E3.97172
G1 X76.905 Y134.937 E4.00136
G1 X76.487 Y134.25 E4.01741
G1 X76.112 Y133.506 E4.03403
G1 X75.933 Y133.074 E4.04337
G1 X75.542 Y131.809 E4.06979
G1 X75.45 Y131.369 E4.07876
G1 X75.309 Y130.151 E4.10323
G1 X75.295 Y129.606 E4.11411
G1 X75.324 Y104.689 E4.61135
G1 X75.422 Y103.808 E4.62904
G1 X75.542 Y103.202 E4.64137
G1 X75.793 Y102.33 E4.65948
G1 X76.079 Y101.582 E4.67546
G1 X76.455 Y100.803 E4.69272
G1 X76.877 Y100.103 E4.70903
G1 X77.806 Y98.919 E4.73907
G1 X78.417 Y98.309 E4.7563
G1 X78.982 Y97.839 E4.77096
G0 F6000 X79.238 Y98.147
G1 F1200 X80.174 Y97.513 E4.79352
G1 X80.736 Y97.204 E4.80632
G1 X81.376 Y96.918 E4.82031
G1 X82.216 Y96.627 E4.83805
G1 X83.271 Y96.381 E4.85967
G1 X84.244 Y96.264 E4.87923
G1 X84.565 Y96.25 E4.88564
G1 X150.249 Y96.25 E6.19643
G1 X151.214 Y96.304 E6.21572
G1 X151.64 Y96.364 E6.22431
G1 X152.706 Y96.606 E6.24612
G1 X153.635 Y96.925 E6.26572
G1 X154.315 Y97.236 E6.28065
G1 X155.119 Y97.692 E6.29909
G1 X155.879 Y98.239 E6.31778
G1 X156.478 Y98.763 E6.33366
G1 X157.054 Y99.364 E6.35027
G1 X157.75 Y100.267 E6.37302
G1 X158.2 Y101.01 E6.39036
G1 X158.532 Y101.688 E6.40542
G1 X158.841 Y102.495 E6.42267
G1 X159.057 Y103.239 E6.43813
G1 X159.163 Y103.745 E6.44845
G1 X159.291 Y104.842 E6.47049
G1 X159.305 Y105.35 E6.48063
G1 X159.29 Y130.105 E6.97464
G1 X159.214 Y130.931 E6.99119
G1 X159.078 Y131.678 E7.00635
G1 X158.899 Y132.332 E7.01988
G1 X158.601 Y133.152 E7.03729
G1 X158.24 Y133.914 E7.05412
G1 X157.799 Y134.66 E7.07141
G1 X157.403 Y135.213 E7.08498
G1 X156.857 Y135.855 E7.1018
G1 X156.411 Y136.302 E7.1144
G1 X155.536 Y137.03 E7.13712
G1 X155.108 Y137.319 E7.14742
G1 X153.784 Y138.022 E7.17734
G1 X153.316 Y138.205 E7.18737
G1 X152.2 Y138.525 E7.21054
G1 X151.655 Y138.631 E7.22162
G1 X150.439 Y138.747 E7.24599
G1 X84.188 Y138.723 E8.5681
G1 X83.481 Y138.65 E8.58229
G1 X82.525 Y138.462 E8.60173
G1 X82.069 Y138.332 E8.61119
G1 X81.139 Y137.982 E8.63102
G1 X80.658 Y137.755 E8.64164
G1 X79.676 Y137.174 E8.66441
G1 X79.195 Y136.821 E8.67631
G1 X78.443 Y136.166 E8.69621
G1 X78.111 Y135.825 E8.70571
G1 X77.246 Y134.728 E8.73359
G1 X76.844 Y134.07 E8.74898
G1 X76.482 Y133.353 E8.76501
G1 X76.303 Y132.921 E8.77434
G1 X75.934 Y131.727 E8.79928
G1 X75.842 Y131.287 E8.80825
G1 X75.709 Y130.141 E8.83127
G1 X75.695 Y129.606 E8.84195
G1 X75.722 Y104.733 E9.33832
G1 X75.82 Y103.852 E9.35601
G1 X75.927 Y103.312 E9.367
G1 X76.167 Y102.472 E9.38443
G1 X76.44 Y101.755 E9.39974
G1 X76.798 Y101.01 E9.41624
G1 X77.22 Y100.31 E9.43255
G1 X78.089 Y99.202 E9.46065
G1 X78.673 Y98.617 E9.47714
G1 X79.238 Y98.147 E9.49181
G0 F6000 X79.494 Y98.455
G1 F1200 X80.367 Y97.864 E9.51285
G1 X80.929 Y97.555 E9.52565
G1 X81.508 Y97.296 E9.5383
G1 X82.307 Y97.017 E9.55519
G1 X83.362 Y96.771 E9.57681
G1 X84.261 Y96.664 E9.59488
G1 X84.582 Y96.65 E9.60129
G1 X150.249 Y96.65 E10.91175
G1 X151.159 Y96.7 E10.92993
G1 X151.551 Y96.754 E10.93783
G1 X152.617 Y96.996 E10.95965
G1 X153.469 Y97.289 E10.97763
G1 X154.118 Y97.584 E10.99185
G1 X154.885 Y98.017 E11.00943
G1 X155.645 Y98.564 E11.02812
G1 X156.189 Y99.04 E11.04254
G1 X156.765 Y99.641 E11.05915
G1 X157.408 Y100.475 E11.08017
G1 X157.841 Y101.187 E11.0968
G1 X158.159 Y101.832 E11.11115
G1 X158.457 Y102.607 E11.12772
G1 X158.665 Y103.321 E11.14256
G1 X158.771 Y103.827 E11.15288
G1 X158.891 Y104.853 E11.17349
G1 X158.905 Y105.35 E11.18341
G1 X158.892 Y130.069 E11.67671
G1 X158.82 Y130.859 E11.69254
G1 X158.684 Y131.606 E11.70769
G1 X158.523 Y132.195 E11.71988
G1 X158.225 Y133.015 E11.73729
G1 X157.895 Y133.711 E11.75266
G1 X157.473 Y134.428 E11.76926
G1 X157.098 Y134.954 E11.78215
G1 X156.574 Y135.572 E11.79832
G1 X156.128 Y136.019 E11.81092
G1 X155.312 Y136.698 E11.83211
G1 X154.884 Y136.987 E11.84242
G1 X153.638 Y137.649 E11.87057
G1 X153.17 Y137.832 E11.8806
G1 X152.124 Y138.132 E11.90232
G1 X151.579 Y138.238 E11.9134
G1 X150.439 Y138.347 E11.93625
G1 X84.229 Y138.325 E13.25754
G1 X83.522 Y138.252 E13.27173
G1 X82.635 Y138.077 E13.28977
G1 X82.179 Y137.947 E13.29923
G1 X81.31 Y137.62 E13.31776
G1 X80.829 Y137.393 E13.32837
G1 X79.912 Y136.851 E13.34963
G1 X79.457 Y136.519 E13.36087
G1 X78.73 Y135.887 E13.38009
G1 X78.398 Y135.546 E13.38959
G1 X77.587 Y134.519 E13.41571
G1 X77.201 Y133.889 E13.43045
G1 X76.852 Y133.2 E13.44586
G1 X76.673 Y132.768 E13.4552
G1 X76.326 Y131.645 E13.47865
G1 X76.234 Y131.205 E13.48762
G1 X76.109 Y130.13 E13.50922
G1 X76.095 Y129.606 E13.51968
G1 X76.12 Y104.777 E14.01517
G1 X76.213 Y103.929 E14.0322
G1 X76.312 Y103.421 E14.04252
G1 X76.541 Y102.614 E14.05926
G1 X76.814 Y101.897 E14.07457
G1 X77.141 Y101.217 E14.08963
G1 X77.563 Y100.517 E14.10594
G1 X78.373 Y99.484 E14.13214
G1 X78.929 Y98.925 E14.14787
G1 X79.494 Y98.455 E14.16254
G0 F6000 X79.75 Y98.763
G1 F1200 X80.56 Y98.215 E14.18206
G1 X81.122 Y97.906 E14.19486
G1 X81.64 Y97.674 E14.20618
G1 X82.439 Y97.395 E14.22307
G1 X83.41 Y97.168 E14.24297
G1 X84.278 Y97.064 E14.26042
G1 X84.599 Y97.05 E14.26683
G1 X150.249 Y97.05 E15.57695
G1 X151.107 Y97.097 E15.59409
G1 X151.462 Y97.144 E15.60124
G1 X152.528 Y97.386 E15.62305
G1 X153.304 Y97.653 E15.63943
G1 X153.922 Y97.933 E15.65297
G1 X154.651 Y98.342 E15.66965
G1 X155.411 Y98.889 E15.68834
G1 X155.9 Y99.317 E15.70131
G1 X156.476 Y99.918 E15.71792
G1 X157.067 Y100.684 E15.73723
G1 X157.483 Y101.365 E15.75315
G1 X157.786 Y101.976 E15.76676
G1 X158.073 Y102.719 E15.78266
G1 X158.273 Y103.403 E15.79688
G1 X158.379 Y103.909 E15.8072
G1 X158.491 Y104.865 E15.8264
G1 X158.505 Y105.35 E15.83609
G1 X158.494 Y130.033 E16.32866
G1 X158.426 Y130.787 E16.34377
G1 X158.29 Y131.534 E16.35892
G1 X158.147 Y132.058 E16.36976
G1 X157.849 Y132.878 E16.38717
G1 X157.55 Y133.509 E16.40111
G1 X157.147 Y134.196 E16.417
G1 X156.792 Y134.696 E16.42924
G1 X156.291 Y135.289 E16.44473
G1 X155.845 Y135.736 E16.45733
G1 X155.088 Y136.366 E16.47699
G1 X154.66 Y136.655 E16.48729
G1 X153.492 Y137.276 E16.51369
G1 X153.024 Y137.459 E16.52372
G1 X152.048 Y137.739 E16.54398
G1 X151.503 Y137.845 E16.55506
G1 X150.439 Y137.947 E16.57639
G1 X84.269 Y137.927 E17.89689
G1 X83.599 Y137.859 E17.91033
G1 X82.745 Y137.692 E17.92769
G1 X82.289 Y137.562 E17.93715
G1 X81.481 Y137.258 E17.95438
G1 X81 Y137.031 E17.965
G1 X80.147 Y136.527 E17.98477
G1 X79.719 Y136.217 E17.99531
G1 X79.017 Y135.608 E18.01386
G1 X78.685 Y135.267 E18.02336
G1 X77.928 Y134.309 E18.04772
G1 X77.558 Y133.708 E18.06181
G1 X77.222 Y133.047 E18.07661
G1 X77.043 Y132.615 E18.08594
G1 X76.718 Y131.563 E18.10791
G1 X76.626 Y131.123 E18.11688
G1 X76.509 Y130.119 E18.13705
G1 X76.495 Y129.606 E18.14729
G1 X76.518 Y104.82 E18.64192
G1 X76.606 Y104.006 E18.65826
G1 X76.705 Y103.498 E18.66859
G1 X76.915 Y102.756 E18.68398
G1 X77.175 Y102.07 E18.69862
G1 X77.484 Y101.424 E18.71291
G1 X77.906 Y100.724 E18.72922
G1 X78.657 Y99.766 E18.75352
G1 X79.185 Y99.233 E18.76849
G1 X79.75 Y98.763 E18.78315
G0 F6000 X80.005 Y99.071
G1 F1200 X80.753 Y98.565 E18.80118
G1 X81.287 Y98.271 E18.81334
G1 X81.772 Y98.052 E18.82396
G1 X82.571 Y97.773 E18.84085
G1 X83.458 Y97.565 E18.85903
G1 X84.295 Y97.464 E18.87585
G1 X84.616 Y97.45 E18.88227
G1 X150.249 Y97.45 E20.19204
G1 X151.055 Y97.494 E20.20815
G1 X151.41 Y97.541 E20.2153
G1 X152.399 Y97.765 E20.23554
G1 X153.14 Y98.018 E20.25116
G1 X153.727 Y98.282 E20.26401
G1 X154.418 Y98.667 E20.27979
G1 X155.148 Y99.19 E20.29771
G1 X155.611 Y99.594 E20.30997
G1 X156.187 Y100.195 E20.32659
G1 X156.726 Y100.893 E20.34419
G1 X157.125 Y101.544 E20.35942
G1 X157.413 Y102.121 E20.37229
G1 X157.689 Y102.832 E20.38751
G1 X157.881 Y103.485 E20.4011
G1 X157.987 Y103.991 E20.41141
G1 X158.091 Y104.877 E20.42922
G1 X158.105 Y105.35 E20.43866
G1 X158.096 Y129.997 E20.93052
G1 X158.032 Y130.715 E20.9449
G1 X157.896 Y131.462 E20.96005
G1 X157.771 Y131.922 E20.96957
G1 X157.487 Y132.708 E20.98624
G1 X157.205 Y133.307 E20.99946
G1 X156.82 Y133.965 E21.01467
G1 X156.486 Y134.438 E21.02623
G1 X156.008 Y135.006 E21.04104
G1 X155.562 Y135.453 E21.05364
G1 X154.864 Y136.034 E21.07177
G1 X154.436 Y136.323 E21.08207
G1 X153.346 Y136.903 E21.10671
G1 X152.878 Y137.086 E21.11674
G1 X151.972 Y137.346 E21.13555
G1 X151.427 Y137.452 E21.14663
G1 X150.439 Y137.547 E21.16644
G1 X84.309 Y137.529 E22.48613
G1 X83.639 Y137.461 E22.49957
G1 X82.855 Y137.307 E22.51552
G1 X82.399 Y137.177 E22.52498
G1 X81.652 Y136.896 E22.54091
G1 X81.171 Y136.669 E22.55152
G1 X80.381 Y136.202 E22.56983
G1 X79.981 Y135.914 E22.57967
G1 X79.304 Y135.329 E22.59753
G1 X78.972 Y134.988 E22.60702
G1 X78.268 Y134.098 E22.62967
G1 X77.914 Y133.526 E22.64309
G1 X77.592 Y132.894 E22.65725
G1 X77.413 Y132.462 E22.66658
G1 X77.11 Y131.481 E22.68707
G1 X77.018 Y131.041 E22.69604
G1 X76.909 Y130.108 E22.71478
G1 X76.895 Y129.606 E22.72481
G1 X76.916 Y104.862 E23.2186
G1 X76.999 Y104.083 E23.23423
G1 X77.098 Y103.575 E23.24456
G1 X77.289 Y102.897 E23.25862
G1 X77.536 Y102.242 E23.27259
G1 X77.827 Y101.631 E23.28609
G1 X78.249 Y100.931 E23.30241
G1 X78.941 Y100.048 E23.32479
G1 X79.469 Y99.515 E23.33977
G1 X80.005 Y99.071 E23.35366
G0 F6000 X80.259 Y99.38
G1 F1200 X80.946 Y98.915 E23.37021
G1 X81.452 Y98.636 E23.38174
G1 X81.937 Y98.417 E23.39236
G1 X82.663 Y98.162 E23.40772
G1 X83.506 Y97.962 E23.42501
G1 X84.312 Y97.864 E23.44121
G1 X84.633 Y97.85 E23.44762
G1 X150.249 Y97.85 E24.75706
G1 X151.003 Y97.891 E24.77213
G1 X151.358 Y97.938 E24.77928
G1 X152.271 Y98.144 E24.79795
G1 X152.977 Y98.383 E24.81283
G1 X153.534 Y98.632 E24.825
G1 X154.186 Y98.992 E24.83987
G1 X154.886 Y99.492 E24.85703
G1 X155.323 Y99.871 E24.86858
G1 X155.871 Y100.44 E24.88434
G1 X156.385 Y101.103 E24.90108
G1 X156.767 Y101.723 E24.91562
G1 X157.04 Y102.267 E24.92776
G1 X157.305 Y102.945 E24.94229
G1 X157.489 Y103.567 E24.95523
G1 X157.595 Y104.073 E24.96555
G1 X157.691 Y104.889 E24.98195
G1 X157.705 Y105.35 E24.99115
G1 X157.697 Y129.962 E25.48231
G1 X157.638 Y130.643 E25.49595
G1 X157.502 Y131.39 E25.5111
G1 X157.395 Y131.787 E25.51931
G1 X157.125 Y132.538 E25.53523
G1 X156.859 Y133.106 E25.54775
G1 X156.493 Y133.734 E25.56226
G1 X156.159 Y134.207 E25.57381
G1 X155.725 Y134.723 E25.58727
G1 X155.279 Y135.17 E25.59987
G1 X154.64 Y135.702 E25.61646
G1 X154.212 Y135.991 E25.62677
G1 X153.2 Y136.53 E25.64965
G1 X152.732 Y136.713 E25.65968
G1 X151.896 Y136.953 E25.67703
G1 X151.351 Y137.059 E25.68811
G1 X150.439 Y137.147 E25.7064
G1 X84.349 Y137.131 E27.0253
G1 X83.679 Y137.063 E27.03874
G1 X82.965 Y136.922 E27.05326
G1 X82.509 Y136.792 E27.06272
G1 X81.823 Y136.534 E27.07735
G1 X81.342 Y136.307 E27.08796
G1 X80.615 Y135.877 E27.10482
G1 X80.215 Y135.589 E27.11465
G1 X79.591 Y135.05 E27.13111
G1 X79.259 Y134.709 E27.14061
G1 X78.582 Y133.85 E27.16243
G1 X78.27 Y133.344 E27.1743
G1 X77.962 Y132.741 E27.18781
G1 X77.783 Y132.309 E27.19714
G1 X77.502 Y131.399 E27.21615
G1 X77.41 Y130.959 E27.22512
G1 X77.309 Y130.097 E27.24244
G1 X77.295 Y129.606 E27.25224
G1 X77.314 Y104.904 E27.74519
G1 X77.392 Y104.16 E27.76012
G1 X77.491 Y103.652 E27.77045
G1 X77.674 Y103.006 E27.78385
G1 X77.898 Y102.413 E27.7965
G1 X78.17 Y101.838 E27.80919
G1 X78.592 Y101.138 E27.82551
G1 X79.225 Y100.33 E27.84599
G1 X79.753 Y99.797 E27.86096
G1 X80.259 Y99.38 E27.87405
G0 F6000 X80.484 Y99.711
G1 F1200 X81.14 Y99.265 E27.88988
G1 X81.617 Y99.001 E27.90076
G1 X82.102 Y98.782 E27.91138
G1 X82.757 Y98.551 E27.92524
G1 X83.555 Y98.359 E27.94162
G1 X84.329 Y98.264 E27.95718
G1 X84.65 Y98.25 E27.96359
G1 X150.249 Y98.25 E29.27269
G1 X150.951 Y98.288 E29.28672
G1 X151.306 Y98.335 E29.29386
G1 X152.143 Y98.523 E29.31098
G1 X152.815 Y98.749 E29.32513
G1 X153.342 Y98.983 E29.33664
G1 X153.954 Y99.318 E29.35056
G1 X154.625 Y99.795 E29.36699
G1 X155.036 Y100.149 E29.37782
G1 X155.556 Y100.686 E29.39273
G1 X156.045 Y101.313 E29.4086
G1 X156.409 Y101.902 E29.42242
G1 X156.682 Y102.446 E29.43457
G1 X156.922 Y103.059 E29.4477
G1 X157.097 Y103.649 E29.45998
G1 X157.203 Y104.155 E29.4703
G1 X157.291 Y104.901 E29.48529
G1 X157.305 Y105.35 E29.49426
G1 X157.298 Y129.927 E29.98472
G1 X157.239 Y130.608 E29.99836
G1 X157.115 Y131.287 E30.01213
G1 X157.018 Y131.652 E30.01967
G1 X156.762 Y132.369 E30.03486
G1 X156.513 Y132.905 E30.04666
G1 X156.166 Y133.504 E30.06047
G1 X155.852 Y133.95 E30.07136
G1 X155.442 Y134.44 E30.08411
G1 X154.996 Y134.887 E30.09671
G1 X154.416 Y135.37 E30.11177
G1 X153.988 Y135.659 E30.12208
G1 X153.054 Y136.157 E30.1432
G1 X152.586 Y136.34 E30.15323
G1 X151.82 Y136.56 E30.16913
G1 X151.275 Y136.666 E30.18021
G1 X150.439 Y136.747 E30.19697
G1 X84.389 Y136.733 E31.51507
G1 X83.719 Y136.665 E31.52851
G1 X83.075 Y136.537 E31.54161
G1 X82.619 Y136.407 E31.55108
G1 X81.994 Y136.172 E31.5644
G1 X81.513 Y135.945 E31.57502
G1 X80.849 Y135.552 E31.59041
G1 X80.449 Y135.264 E31.60025
G1 X79.878 Y134.771 E31.6153
G1 X79.546 Y134.43 E31.6248
G1 X78.922 Y133.639 E31.64491
G1 X78.626 Y133.161 E31.65613
G1 X78.332 Y132.588 E31.66898
G1 X78.153 Y132.156 E31.67831
G1 X77.894 Y131.317 E31.69583
G1 X77.802 Y130.877 E31.7048
G1 X77.709 Y130.085 E31.72072
G1 X77.695 Y129.606 E31.73028
G1 X77.712 Y104.945 E32.22242
G1 X77.785 Y104.237 E32.23662
G1 X77.884 Y103.729 E32.24695
G1 X78.048 Y103.147 E32.25902
G1 X78.26 Y102.584 E32.27102
G1 X78.532 Y102.009 E32.28372
G1 X78.908 Y101.384 E32.29827
G1 X79.509 Y100.612 E32.3178
G1 X80.037 Y100.079 E32.33277
G1 X80.484 Y99.711 E32.34432
G0 F6000 X80.71 Y100.041
G1 F1200 X81.334 Y99.615 E32.3594
G1 X81.782 Y99.366 E32.36963
G1 X82.267 Y99.147 E32.38025
G1 X82.852 Y98.94 E32.39263
G1 X83.604 Y98.756 E32.40808
G1 X84.346 Y98.664 E32.423
G1 X84.667 Y98.65 E32.42941
G1 X150.249 Y98.65 E33.73817
G1 X150.899 Y98.685 E33.75116
G1 X151.254 Y98.732 E33.75831
