;FLAVOR:Marlin
;TIME:10574
;Filament used: 7.8984m
;Layer height: 0.2
;MINX:63.361
;MINY:74.719
;MINZ:0.2
;MAXX:170.171
;MAXY:157.405
;MAXZ:31.4
;TARGET_MACHINE.NAME:Creality Ender-3
;Generated with Cura_SteamEngine 5.7.0
M140 S60
M105
M190 S60
M104 S210
M105
M109 S210
M82 ;absolute extrusion mode
; Ender 3 Custom Start G-code
G92 E0 ; Reset Extruder
G28 ; Home all axes
G29 ; Autolevel
G1 Z2.0 F3000 ; Move Z Axis up little to prevent scratching of Heat Bed
G1 X0.1 Y20 Z0.3 F5000.0 ; Move to start position
G1 X0.1 Y200.0 Z0.3 F1500.0 E15 ; Draw the first line
G1 X0.4 Y200.0 Z0.3 F5000.0 ; Move to side a little
G1 X0.4 Y20 Z0.3 F1500.0 E30 ; Draw the second line
G92 E0 ; Reset Extruder
G1 Z2.0 F3000 ; Move Z Axis up little to prevent scratching of Heat Bed
G1 X5 Y20 Z0.3 F5000.0 ; Move over to prevent blob squish
G92 E0
G92 E0
G1 F2700 E-5
;LAYER_COUNT:157
;LAYER:0
M107
M205 X8 Y8
G0 F6000 X74.738 Y78.971 Z0.2
;TYPE:SKIRT
G1 F2700 E0
G1 F1200 X75.421 Y78.326 E0.03125
G1 X76.158 Y77.745 E0.06246
G1 X76.913 Y77.25 E0.09249
G1 X77.771 Y76.79 E0.12487
G1 X78.631 Y76.424 E0.15595
G1 X79.277 Y76.206 E0.17863
G1 X80.225 Y75.921 E0.21155
G1 X81.5 Y75.561 E0.25562
G1 X82.219 Y75.368 E0.28038
G1 X83.136 Y75.167 E0.3116
G1 X84.066 Y75.048 E0.34279
G1 X84.969 Y75.011 E0.37285
G1 X85.472 Y75.023 E0.38958
G1 X86.8 Y75.089 E0.4338
G1 X89.32 Y75.18 E0.51767
G1 X91.877 Y75.201 E0.60272
G1 X94.396 Y75.15 E0.68652
G1 X96.912 Y75.028 E0.7703
G1 X100.292 Y74.759 E0.88308
G1 X101.195 Y74.719 E0.91314
G1 X102.386 Y74.784 E0.95281
G1 X103.949 Y74.959 E1.00512
G1 X106.534 Y75.198 E1.09147
G1 X109.034 Y75.358 E1.17479
G1 X111.591 Y75.448 E1.25989
G1 X114.124 Y75.467 E1.34414
G1 X115.765 Y75.436 E1.39873
G1 X116.237 Y75.435 E1.41443
G1 X117.407 Y75.497 E1.4534
G1 X118.593 Y75.626 E1.49307
G1 X121.202 Y75.873 E1.58024
G1 X123.712 Y76.038 E1.6639
G1 X126.252 Y76.134 E1.74844
G1 X128.796 Y76.158 E1.83306
G1 X131.279 Y76.11 E1.91566
G1 X133.866 Y75.987 E2.0018
G1 X136.095 Y75.825 E2.07613
G1 X137.05 Y75.799 E2.10791
G1 X137.987 Y75.856 E2.13913
G1 X138.88 Y75.99 E2.16917
G1 X139.537 Y76.139 E2.19157
G1 X140.676 Y76.438 E2.23074
G1 X142.36 Y76.919 E2.28899
G1 X143.267 Y77.223 E2.32081
G1 X144.127 Y77.6 E2.35204
G1 X144.95 Y78.051 E2.38325
G1 X145.73 Y78.573 E2.41447
G1 X146.459 Y79.161 E2.44562
G1 X147.036 Y79.71 E2.47211
G1 X147.67 Y80.361 E2.50233
G1 X148.605 Y81.35 E2.5476
G1 X149.105 Y81.894 E2.57217
G1 X149.705 Y82.609 E2.60322
G1 X150.12 Y83.188 E2.62691
G1 X151.822 Y85.746 E2.7291
G1 X153.257 Y87.768 E2.81157
G1 X154.79 Y89.805 E2.89636
G1 X156.382 Y91.802 E2.98131
G1 X157.987 Y93.698 E3.06393
G1 X159.704 Y95.617 E3.14957
G1 X161.41 Y97.42 E3.23213
G1 X163.229 Y99.231 E3.3175
G1 X165.308 Y101.209 E3.41295
G1 X166.033 Y101.953 E3.4475
G1 X166.83 Y102.809 E3.4864
G1 X167.437 Y103.524 E3.5176
G1 X167.98 Y104.29 E3.54883
G1 X168.451 Y105.101 E3.58002
G1 X168.836 Y105.918 E3.61006
G1 X169.213 Y106.964 E3.64704
G1 X169.531 Y108.02 E3.68372
G1 X169.792 Y108.957 E3.71607
G1 X170 Y109.871 E3.74725
G1 X170.127 Y110.801 E3.77847
G1 X170.171 Y111.738 E3.80967
G1 X170.135 Y112.641 E3.83972
G1 X169.924 Y114.04 E3.88678
G1 X169.564 Y115.673 E3.9424
G1 X169.071 Y118.145 E4.02624
G1 X168.636 Y120.69 E4.11211
G1 X168.287 Y123.159 E4.19505
G1 X167.984 Y125.835 E4.28462
G1 X167.837 Y126.758 E4.31571
G1 X167.686 Y127.392 E4.33738
G1 X167.328 Y128.709 E4.38278
G1 X167.112 Y129.444 E4.40826
G1 X166.82 Y130.299 E4.43831
G1 X166.424 Y131.189 E4.4707
G1 X165.967 Y132.008 E4.5019
G1 X165.439 Y132.785 E4.53314
G1 X164.868 Y133.485 E4.56319
G1 X164.516 Y133.862 E4.58034
G1 X163.504 Y134.892 E4.62837
G1 X162.595 Y135.775 E4.67052
G1 X161.38 Y136.925 E4.72616
G1 X159.582 Y138.724 E4.81076
G1 X157.804 Y140.608 E4.89692
G1 X156.568 Y141.97 E4.95809
G1 X156 Y142.565 E4.98545
G1 X155.318 Y143.211 E5.0167
G1 X154.582 Y143.792 E5.04788
G1 X153.804 Y144.302 E5.07882
G1 X153.37 Y144.547 E5.0954
G1 X152.898 Y144.798 E5.11318
G1 X150.62 Y146.051 E5.19965
G1 X148.435 Y147.334 E5.28393
G1 X146.317 Y148.658 E5.367
G1 X144.209 Y150.062 E5.45124
G1 X142.136 Y151.528 E5.53569
G1 X139.63 Y153.42 E5.64013
G1 X138.675 Y154.167 E5.68046
G1 X137.91 Y154.71 E5.71166
G1 X137.1 Y155.183 E5.74286
G1 X136.248 Y155.585 E5.77419
G1 X135.209 Y155.958 E5.81091
G1 X134.093 Y156.291 E5.84964
G1 X132.464 Y156.739 E5.90583
G1 X131.548 Y156.946 E5.93707
G1 X130.618 Y157.072 E5.96828
G1 X129.681 Y157.115 E5.99948
G1 X128.745 Y157.075 E6.03064
G1 X127.954 Y156.976 E6.05715
G1 X126.825 Y156.791 E6.09521
G1 X124.226 Y156.401 E6.18262
G1 X121.673 Y156.091 E6.26815
G1 X119.22 Y155.863 E6.35009
G1 X116.655 Y155.698 E6.43558
G1 X114.168 Y155.609 E6.51835
G1 X111.61 Y155.589 E6.60343
G1 X109.1 Y155.641 E6.68693
G1 X106.558 Y155.766 E6.77158
G1 X104.023 Y155.962 E6.85615
G1 X101.521 Y156.227 E6.93983
G1 X99.577 Y156.482 E7.00504
G1 X96.605 Y156.956 E7.10514
G1 X95.307 Y157.184 E7.14897
G1 X94.293 Y157.327 E7.18303
G1 X93.358 Y157.405 E7.21424
G1 X92.419 Y157.401 E7.24547
G1 X91.477 Y157.312 E7.27694
G1 X90.152 Y157.042 E7.32192
G1 X89.448 Y156.849 E7.3462
G1 X88.083 Y156.448 E7.39352
G1 X87.37 Y156.225 E7.41836
G1 X86.486 Y155.906 E7.44962
G1 X85.636 Y155.509 E7.48082
G1 X84.823 Y155.038 E7.51207
G1 X84.04 Y154.485 E7.54396
G1 X83.328 Y153.929 E7.574
G1 X82.307 Y153.103 E7.61768
G1 X80.299 Y151.57 E7.70171
G1 X78.241 Y150.089 E7.78604
G1 X76.135 Y148.662 E7.87065
G1 X74.01 Y147.308 E7.95446
G1 X71.871 Y146.031 E8.03731
G1 X70.67 Y145.366 E8.08297
G1 X70.407 Y145.205 E8.09323
G1 X69.401 Y144.64 E8.13161
G1 X68.605 Y144.144 E8.1628
G1 X67.855 Y143.578 E8.19405
G1 X67.156 Y142.947 E8.22537
G1 X66.741 Y142.536 E8.2448
G1 X66.104 Y141.847 E8.27601
G1 X65.53 Y141.104 E8.30724
G1 X65.024 Y140.313 E8.33847
G1 X64.606 Y139.512 E8.36852
G1 X64.235 Y138.618 E8.40071
G1 X64.03 Y137.993 E8.42259
G1 X63.925 Y137.632 E8.43509
G1 X63.702 Y136.721 E8.46629
G1 X63.561 Y135.793 E8.49751
G1 X63.502 Y134.864 E8.52847
G1 X63.504 Y134.38 E8.54457
G1 X63.579 Y131.567 E8.63816
G1 X63.583 Y109.376 E9.37623
G1 X63.569 Y105.476 E9.50595
G1 X63.489 Y102.96 E9.58968
G1 X63.391 Y101.319 E9.64435
G1 X63.361 Y100.658 E9.66636
G1 X63.362 Y99.702 E9.69816
G1 X63.445 Y98.768 E9.72934
G1 X63.61 Y97.851 E9.76033
G1 X63.75 Y97.298 E9.77931
G1 X63.873 Y96.864 E9.79431
G1 X64.169 Y95.972 E9.82557
G1 X64.545 Y95.108 E9.85691
G1 X65.109 Y94.096 E9.89544
G1 X66.388 Y92.072 E9.97508
G1 X67.679 Y89.906 E10.05894
G1 X68.906 Y87.708 E10.14267
G1 X70.093 Y85.432 E10.22804
G1 X70.656 Y84.277 E10.27078
G1 X71.015 Y83.564 E10.29733
G1 X71.475 Y82.745 E10.32857
G1 X72.004 Y81.972 E10.35973
G1 X72.523 Y81.334 E10.38708
G1 X72.928 Y80.882 E10.40727
G1 X74.225 Y79.5 E10.47031
G1 X74.738 Y78.971 E10.49481
G0 F6000 X75.013 Y79.261
G1 F1200 X75.669 Y78.64 E10.52486
G1 X76.377 Y78.08 E10.55488
G1 X77.132 Y77.585 E10.58491
G1 X77.928 Y77.158 E10.61495
G1 X78.759 Y76.803 E10.64501
G1 X79.392 Y76.589 E10.66723
G1 X80.334 Y76.306 E10.69995
G1 X81.604 Y75.947 E10.74384
G1 X82.305 Y75.759 E10.76798
G1 X83.187 Y75.564 E10.79803
G1 X84.082 Y75.448 E10.82804
G1 X84.985 Y75.411 E10.8581
G1 X85.452 Y75.423 E10.87364
G1 X86.78 Y75.489 E10.91786
G1 X89.306 Y75.58 E11.00193
G1 X91.882 Y75.601 E11.08762
G1 X94.415 Y75.55 E11.17188
G1 X96.931 Y75.428 E11.25566
G1 X100.31 Y75.159 E11.3684
G1 X101.213 Y75.119 E11.39847
G1 X102.342 Y75.182 E11.43608
G1 X103.905 Y75.356 E11.48838
G1 X106.508 Y75.597 E11.57533
G1 X109.02 Y75.758 E11.65905
G1 X111.577 Y75.848 E11.74415
G1 X114.129 Y75.867 E11.82903
G1 X115.766 Y75.836 E11.88349
G1 X116.238 Y75.835 E11.89919
G1 X117.364 Y75.895 E11.93669
G1 X118.55 Y76.024 E11.97637
G1 X121.171 Y76.272 E12.06393
G1 X123.697 Y76.438 E12.14813
G1 X126.237 Y76.534 E12.23267
G1 X128.8 Y76.558 E12.31792
G1 X131.298 Y76.51 E12.40102
G1 X133.885 Y76.387 E12.48716
G1 X136.124 Y76.224 E12.56183
G1 X137.026 Y76.198 E12.59184
G1 X137.928 Y76.252 E12.62189
G1 X138.821 Y76.386 E12.65193
G1 X139.435 Y76.526 E12.67287
G1 X140.566 Y76.823 E12.71177
G1 X142.25 Y77.304 E12.77002
G1 X143.107 Y77.59 E12.80007
G1 X143.935 Y77.951 E12.83011
G1 X144.728 Y78.384 E12.86016
G1 X145.479 Y78.885 E12.89019
G1 X146.183 Y79.451 E12.92023
G1 X146.749 Y79.989 E12.9462
G1 X147.379 Y80.636 E12.97624
G1 X148.311 Y81.621 E13.02134
G1 X148.799 Y82.151 E13.0453
G1 X149.38 Y82.842 E13.07533
G1 X149.787 Y83.41 E13.09857
G1 X151.489 Y85.968 E13.20076
G1 X152.937 Y88.009 E13.284
G1 X154.477 Y90.055 E13.36917
G1 X156.07 Y92.051 E13.45411
G1 X157.689 Y93.965 E13.53749
G1 X159.406 Y95.884 E13.62313
G1 X161.128 Y97.703 E13.70644
G1 X162.954 Y99.522 E13.79217
G1 X164.741 Y101.213 E13.87399
G1 X165.021 Y101.488 E13.88705
G1 X165.74 Y102.226 E13.92132
G1 X166.525 Y103.068 E13.95961
G1 X167.111 Y103.756 E13.98966
G1 X167.634 Y104.492 E14.01969
G1 X168.089 Y105.272 E14.04973
G1 X168.474 Y106.089 E14.07977
G1 X168.83 Y107.079 E14.11476
G1 X169.146 Y108.127 E14.15117
G1 X169.402 Y109.046 E14.1829
G1 X169.604 Y109.926 E14.21293
G1 X169.727 Y110.82 E14.24294
G1 X169.771 Y111.722 E14.27298
G1 X169.735 Y112.625 E14.30304
G1 X169.533 Y113.954 E14.34775
G1 X169.174 Y115.587 E14.40336
G1 X168.679 Y118.067 E14.48747
G1 X168.242 Y120.623 E14.57371
G1 X167.891 Y123.103 E14.65702
G1 X167.589 Y125.773 E14.74639
G1 X167.448 Y126.665 E14.77643
G1 X167.3 Y127.287 E14.79769
G1 X166.944 Y128.596 E14.84281
G1 X166.733 Y129.315 E14.86774
G1 X166.441 Y130.17 E14.89779
G1 X166.074 Y130.995 E14.92782
G1 X165.636 Y131.784 E14.95783
G1 X165.129 Y132.532 E14.98789
G1 X164.558 Y133.232 E15.01793
G1 X164.231 Y133.582 E15.03386
G1 X163.225 Y134.605 E15.08159
G1 X162.32 Y135.484 E15.12355
G1 X161.105 Y136.634 E15.17919
G1 X159.299 Y138.441 E15.26416
G1 X157.513 Y140.333 E15.3507
G1 X156.279 Y141.694 E15.4118
G1 X155.725 Y142.275 E15.4385
G1 X155.07 Y142.897 E15.46855
G1 X154.362 Y143.458 E15.49859
G1 X153.607 Y143.954 E15.52864
G1 X153.182 Y144.194 E15.54487
G1 X152.71 Y144.445 E15.56265
G1 X150.417 Y145.706 E15.64969
G1 X148.232 Y146.989 E15.73396
G1 X146.095 Y148.325 E15.81779
G1 X143.978 Y149.735 E15.90239
G1 X141.905 Y151.201 E15.98683
G1 X139.389 Y153.101 E16.0917
G1 X138.443 Y153.841 E16.13164
G1 X137.708 Y154.365 E16.16167
G1 X136.929 Y154.822 E16.19171
G1 X136.113 Y155.209 E16.22174
G1 X135.095 Y155.575 E16.25772
G1 X133.987 Y155.905 E16.29618
G1 X132.375 Y156.349 E16.35179
G1 X131.494 Y156.55 E16.38184
G1 X130.599 Y156.672 E16.41189
G1 X129.697 Y156.715 E16.44192
G1 X128.795 Y156.678 E16.47195
G1 X128.019 Y156.581 E16.49796
G1 X126.884 Y156.395 E16.53621
G1 X124.285 Y156.005 E16.62362
G1 X121.721 Y155.694 E16.70953
G1 X119.246 Y155.464 E16.7922
G1 X116.669 Y155.298 E16.87809
G1 X114.182 Y155.209 E16.96086
G1 X111.605 Y155.189 E17.04657
G1 X109.08 Y155.241 E17.13057
G1 X106.538 Y155.366 E17.21522
G1 X103.986 Y155.563 E17.30036
G1 X101.469 Y155.83 E17.38454
G1 X99.525 Y156.085 E17.44975
G1 X96.542 Y156.561 E17.55022
G1 X95.251 Y156.788 E17.59382
G1 X94.259 Y156.928 E17.62714
G1 X93.359 Y157.005 E17.65718
G1 X92.456 Y157.003 E17.68722
G1 X91.557 Y156.92 E17.71725
G1 X90.258 Y156.656 E17.76133
G1 X89.561 Y156.465 E17.78537
G1 X88.202 Y156.066 E17.83248
G1 X87.505 Y155.849 E17.85676
G1 X86.655 Y155.543 E17.88681
G1 X85.836 Y155.162 E17.91685
G1 X85.054 Y154.711 E17.94688
G1 X84.271 Y154.158 E17.97876
G1 X83.58 Y153.618 E18.00793
G1 X82.559 Y152.792 E18.05161
G1 X80.533 Y151.245 E18.13639
G1 X78.475 Y149.765 E18.2207
G1 X76.359 Y148.331 E18.30572
G1 X74.225 Y146.971 E18.38988
G1 X72.065 Y145.681 E18.47356
G1 X70.879 Y145.025 E18.51864
G1 X70.603 Y144.856 E18.52941
G1 X69.612 Y144.3 E18.5672
G1 X68.845 Y143.824 E18.59722
G1 X68.123 Y143.281 E18.62727
G1 X67.437 Y142.662 E18.658
G1 X67.034 Y142.264 E18.67684
G1 X66.42 Y141.602 E18.70687
G1 X65.867 Y140.888 E18.73691
G1 X65.379 Y140.128 E18.76695
G1 X64.961 Y139.327 E18.797
G1 X64.615 Y138.493 E18.82703
G1 X64.414 Y137.88 E18.84849
G1 X64.313 Y137.536 E18.86041
G1 X64.097 Y136.66 E18.89042
G1 X63.96 Y135.767 E18.92047
G1 X63.902 Y134.866 E18.9505
G1 X63.904 Y134.391 E18.9663
G1 X63.979 Y131.578 E19.05989
G1 X63.983 Y109.376 E19.79833
G1 X63.969 Y105.475 E19.92808
G1 X63.889 Y102.947 E20.01221
G1 X63.791 Y101.301 E20.06705
G1 X63.761 Y100.64 E20.08906
G1 X63.761 Y99.737 E20.11909
G1 X63.839 Y98.838 E20.1491
G1 X63.998 Y97.949 E20.17914
G1 X64.135 Y97.407 E20.19774
G1 X64.253 Y96.989 E20.21218
G1 X64.536 Y96.131 E20.24223
G1 X64.895 Y95.302 E20.27228
G1 X65.447 Y94.31 E20.31004
G1 X66.732 Y92.277 E20.39003
G1 X68.023 Y90.111 E20.4739
G1 X69.261 Y87.893 E20.55838
G1 X70.448 Y85.617 E20.64376
G1 X71.013 Y84.457 E20.68667
G1 X71.364 Y83.759 E20.71266
G1 X71.805 Y82.97 E20.74272
G1 X72.314 Y82.224 E20.77276
G1 X72.821 Y81.601 E20.79947
G1 X73.22 Y81.156 E20.81935
G1 X74.513 Y79.778 E20.8822
G1 X75.013 Y79.261 E20.90612
G1 F2700 E15.90612
G0 F6000 X82.425 Y86.76
G1 F2700 E20.90612
G1 F1200 X84.947 Y86.047 E20.99329
G1 X87.469 Y86.759 E21.08045
G1 X89.29 Y88.701 E21.169
G1 X90.021 Y91.216 E21.25611
G1 X89.309 Y93.753 E21.34375
G1 X87.481 Y95.582 E21.42976
G1 X87.446 Y95.592 E21.43097
G1 X87.358 Y95.643 E21.43435
G1 X87.149 Y95.853 E21.44421
G1 X84.697 Y96.543 E21.52893
G1 X82.349 Y95.849 E21.61036
G1 X80.477 Y93.96 E21.69882
G1 X79.759 Y91.517 E21.78351
G1 X80.448 Y89.158 E21.86525
G1 X80.452 Y89.153 E21.86546
G1 X80.497 Y89.072 E21.86854
G1 X80.604 Y88.7 E21.88142
G1 X82.425 Y86.76 E21.96991
G0 F6000 X82.64 Y87.116
G1 F1200 X84.947 Y86.463 E22.04966
G1 X87.254 Y87.115 E22.1294
G1 X88.933 Y88.905 E22.21102
G1 X89.605 Y91.217 E22.2911
G1 X88.952 Y93.544 E22.37149
G1 X87.224 Y95.273 E22.45279
G1 X87.074 Y95.361 E22.45858
G1 X86.939 Y95.497 E22.46495
G1 X84.698 Y96.127 E22.54238
G1 X82.561 Y95.496 E22.61649
G1 X80.833 Y93.752 E22.69814
G1 X80.176 Y91.516 E22.77566
G1 X80.83 Y89.275 E22.8533
G1 X80.882 Y89.183 E22.85682
G1 X80.963 Y88.901 E22.86658
G1 X82.64 Y87.116 E22.94804
G0 F6000 X82.855 Y87.471
G1 F1200 X84.947 Y86.879 E23.02035
G1 X87.039 Y87.47 E23.09265
G1 X88.576 Y89.108 E23.16736
G1 X89.189 Y91.22 E23.2405
G1 X88.596 Y93.335 E23.31356
G1 X87.015 Y94.916 E23.38793
G1 X86.97 Y94.936 E23.38957
G1 X86.79 Y95.08 E23.39723
G1 X86.73 Y95.14 E23.40006
G1 X84.702 Y95.711 E23.47013
G1 X82.773 Y95.141 E23.53703
G1 X81.188 Y93.542 E23.61191
G1 X80.593 Y91.515 E23.68218
G1 X81.186 Y89.483 E23.75258
G1 X81.2 Y89.463 E23.75339
G1 X81.266 Y89.294 E23.75943
G1 X81.321 Y89.105 E23.76597
G1 X82.855 Y87.471 E23.84052
G0 F6000 X83.071 Y87.825
G1 F1200 X84.948 Y87.295 E23.90539
G1 X86.822 Y87.824 E23.97015
G1 X88.219 Y89.313 E24.03806
G1 X88.773 Y91.222 E24.10418
G1 X88.239 Y93.125 E24.16991
G1 X86.764 Y94.601 E24.23932
G1 X86.527 Y94.782 E24.24924
G1 X84.706 Y95.295 E24.31216
G1 X82.984 Y94.786 E24.37188
G1 X81.542 Y93.33 E24.44004
G1 X81.01 Y91.516 E24.50292
G1 X81.568 Y89.602 E24.56923
G1 X81.65 Y89.405 E24.57632
G1 X81.678 Y89.309 E24.57965
G1 X83.071 Y87.825 E24.64735
G0 F6000 X83.286 Y88.18
G1 F1200 X84.948 Y87.71 E24.70479
G1 X86.607 Y88.179 E24.76213
G1 X87.86 Y89.515 E24.82305
G1 X88.357 Y91.225 E24.88228
G1 X87.882 Y92.917 E24.94073
G1 X86.459 Y94.341 E25.00769
G1 X86.362 Y94.413 E25.01171
G1 X84.707 Y94.879 E25.06889
G1 X83.197 Y94.432 E25.12127
G1 X81.898 Y93.121 E25.18266
G1 X81.426 Y91.516 E25.2383
G1 X81.959 Y89.69 E25.30157
G1 X82.035 Y89.515 E25.30791
G1 X83.286 Y88.18 E25.36876
G0 F6000 X83.502 Y88.535
G1 F1200 X84.948 Y88.126 E25.41874
G1 X86.391 Y88.534 E25.46862
G1 X87.503 Y89.719 E25.52267
G1 X87.941 Y91.227 E25.5749
G1 X87.525 Y92.708 E25.62606
G1 X86.251 Y93.983 E25.68601
G1 X86.157 Y94.042 E25.6897
G1 X86.135 Y94.061 E25.69067
G1 X84.711 Y94.462 E25.73987
G1 X83.407 Y94.077 E25.7851
G1 X82.254 Y92.912 E25.83961
G1 X81.843 Y91.515 E25.88805
G1 X82.347 Y89.788 E25.94788
G1 X82.366 Y89.745 E25.94945
G1 X83.502 Y88.535 E26.00465
G0 F6000 X83.718 Y88.89
G1 F1200 X84.947 Y88.542 E26.04713
G1 X86.176 Y88.889 E26.08961
G1 X87.146 Y89.923 E26.13676
G1 X87.525 Y91.229 E26.18199
G1 X87.169 Y92.499 E26.22586
G1 X86.013 Y93.655 E26.28023
G1 X85.976 Y93.677 E26.28167
G1 X85.952 Y93.697 E26.2827
G1 X84.713 Y94.046 E26.32552
G1 X83.621 Y93.723 E26.36339
G1 X82.609 Y92.702 E26.41121
