;FLAVOR:Marlin
;TIME:2115
;Filament used: 1.82983m
;Layer height: 0.2
;MINX:70.496
;MINY:92.95
;MINZ:0.2
;MAXX:164.505
;MAXY:142.05
;MAXZ:3.8
;TARGET_MACHINE.NAME:Creality Ender-3
;Generated with Cura_SteamEngine 5.7.0
M140 S60
M105
M190 S60
M104 S210
M105
M109 S210
M82 ;absolute extrusion mode
; Ender 3 Custom Start G-code
G92 E0 ; Reset Extruder
G28 ; Home all axes
G29 ; Autolevel
G1 Z2.0 F3000 ; Move Z Axis up little to prevent scratching of Heat Bed
G1 X0.1 Y20 Z0.3 F5000.0 ; Move to start position
G1 X0.1 Y200.0 Z0.3 F1500.0 E15 ; Draw the first line
G1 X0.4 Y200.0 Z0.3 F5000.0 ; Move to side a little
G1 X0.4 Y20 Z0.3 F1500.0 E30 ; Draw the second line
G92 E0 ; Reset Extruder
G1 Z2.0 F3000 ; Move Z Axis up little to prevent scratching of Heat Bed
G1 X5 Y20 Z0.3 F5000.0 ; Move over to prevent blob squish
G92 E0
G92 E0
G1 F2700 E-5
;LAYER_COUNT:19
;LAYER:0
M107
M205 X8 Y8
G0 F6000 X75.966 Y96.018 Z0.2
;TYPE:SKIRT
G1 F2700 E0
G1 F1200 X76.876 Y95.36 E0.03735
G1 X77.223 Y95.136 E0.05109
G1 X78.12 Y94.619 E0.08552
G1 X78.511 Y94.42 E0.10011
G1 X79.526 Y93.97 E0.13704
G1 X79.897 Y93.829 E0.15024
G1 X80.929 Y93.496 E0.18631
G1 X81.312 Y93.395 E0.19948
G1 X82.307 Y93.181 E0.23334
G1 X82.728 Y93.112 E0.24752
G1 X84.058 Y92.98 E0.29198
G1 X84.934 Y92.955 E0.32113
G1 X149.502 Y92.95 E2.46867
G1 X150.496 Y92.963 E2.50173
G1 X151.233 Y93 E2.52627
G1 X151.624 Y93.034 E2.53933
G1 X152.478 Y93.144 E2.56797
G1 X152.756 Y93.191 E2.57734
G1 X153.706 Y93.399 E2.60969
G1 X154.135 Y93.516 E2.62448
G1 X155.276 Y93.896 E2.66448
G1 X155.745 Y94.084 E2.68128
G1 X156.743 Y94.545 E2.71785
G1 X157.017 Y94.69 E2.72816
G1 X157.856 Y95.184 E2.76054
G1 X158.171 Y95.391 E2.77308
G1 X158.951 Y95.954 E2.80507
G1 X159.314 Y96.243 E2.8205
G1 X160.018 Y96.855 E2.85153
G1 X160.432 Y97.273 E2.8711
G1 X160.756 Y97.618 E2.88684
G1 X161.35 Y98.31 E2.91717
G1 X161.527 Y98.535 E2.92669
G1 X162.071 Y99.294 E2.95775
G1 X162.298 Y99.644 E2.97163
G1 X162.843 Y100.588 E3.00788
G1 X163.024 Y100.944 E3.02117
G1 X163.464 Y101.93 E3.05708
G1 X163.611 Y102.313 E3.07072
G1 X163.953 Y103.368 E3.10761
G1 X164.057 Y103.757 E3.121
G1 X164.273 Y104.758 E3.15506
G1 X164.334 Y105.133 E3.1677
G1 X164.455 Y106.246 E3.20493
G1 X164.486 Y106.825 E3.22422
G1 X164.5 Y107.373 E3.24245
G1 X164.505 Y127.034 E3.89638
G1 X164.491 Y128.039 E3.92981
G1 X164.449 Y128.878 E3.95775
G1 X164.349 Y129.77 E3.9876
G1 X164.284 Y130.179 E4.00138
G1 X164.016 Y131.392 E4.04269
G1 X163.87 Y131.906 E4.06047
G1 X163.471 Y133.051 E4.1008
G1 X163.31 Y133.437 E4.11471
G1 X162.909 Y134.289 E4.14603
G1 X162.765 Y134.56 E4.15623
G1 X162.287 Y135.374 E4.18763
G1 X162.038 Y135.757 E4.20282
G1 X161.513 Y136.491 E4.23284
G1 X160.884 Y137.24 E4.26537
G1 X160.264 Y137.899 E4.29546
G1 X160.062 Y138.095 E4.30482
G1 X159.352 Y138.725 E4.3364
G1 X159.03 Y138.985 E4.35016
G1 X158.124 Y139.64 E4.38734
G1 X157.777 Y139.864 E4.40108
G1 X156.88 Y140.381 E4.43552
G1 X156.489 Y140.58 E4.45011
G1 X155.474 Y141.03 E4.48704
G1 X155.103 Y141.171 E4.50024
G1 X154.071 Y141.504 E4.5363
G1 X153.688 Y141.605 E4.54948
G1 X152.693 Y141.819 E4.58333
G1 X152.272 Y141.888 E4.59752
G1 X150.942 Y142.02 E4.64197
G1 X150.066 Y142.045 E4.67112
G1 X85.498 Y142.05 E6.81866
G1 X84.508 Y142.037 E6.85159
G1 X83.784 Y142.001 E6.8757
G1 X83.389 Y141.967 E6.88889
G1 X82.522 Y141.856 E6.91796
G1 X82.244 Y141.809 E6.92734
G1 X81.294 Y141.601 E6.95968
G1 X80.865 Y141.484 E6.97447
G1 X79.724 Y141.104 E7.01447
G1 X79.255 Y140.916 E7.03128
G1 X78.257 Y140.455 E7.06784
G1 X77.983 Y140.31 E7.07815
G1 X77.168 Y139.831 E7.10959
G1 X76.773 Y139.573 E7.12529
G1 X76.014 Y139.028 E7.15636
G1 X75.316 Y138.44 E7.18672
G1 X74.623 Y137.784 E7.21846
G1 X74.411 Y137.564 E7.22862
G1 X73.785 Y136.854 E7.2601
G1 X73.543 Y136.553 E7.27295
G1 X72.891 Y135.649 E7.31002
G1 X72.674 Y135.311 E7.32338
G1 X72.143 Y134.383 E7.35894
G1 X71.949 Y133.998 E7.37328
G1 X71.499 Y132.977 E7.41039
G1 X71.363 Y132.617 E7.42319
G1 X71.051 Y131.648 E7.45705
G1 X70.944 Y131.248 E7.47082
G1 X70.726 Y130.238 E7.50519
G1 X70.657 Y129.817 E7.51937
G1 X70.525 Y128.484 E7.56393
G1 X70.499 Y127.581 E7.59397
G1 X70.496 Y107.771 E8.25286
G1 X70.51 Y106.926 E8.28097
G1 X70.549 Y106.185 E8.30565
G1 X70.581 Y105.814 E8.31803
G1 X70.691 Y104.963 E8.34657
G1 X70.739 Y104.685 E8.35595
G1 X70.984 Y103.608 E8.39269
G1 X71.13 Y103.095 E8.41043
G1 X71.525 Y101.96 E8.4504
G1 X71.686 Y101.572 E8.46437
G1 X72.09 Y100.712 E8.49598
G1 X72.235 Y100.438 E8.50629
G1 X72.726 Y99.604 E8.53848
G1 X72.938 Y99.28 E8.55135
G1 X73.549 Y98.439 E8.58593
G1 X73.781 Y98.151 E8.59823
G1 X74.489 Y97.358 E8.63359
G1 X74.792 Y97.052 E8.64791
G1 X75.648 Y96.275 E8.68636
G1 X75.966 Y96.018 E8.69996
G0 F6000 X76.201 Y96.342
G1 F1200 X77.093 Y95.696 E8.73659
G1 X77.423 Y95.483 E8.74965
G1 X78.32 Y94.966 E8.78409
G1 X78.673 Y94.786 E8.79727
G1 X79.669 Y94.344 E8.83351
G1 X80.02 Y94.21 E8.84601
G1 X81.032 Y93.883 E8.88138
G1 X81.396 Y93.786 E8.89391
G1 X82.372 Y93.576 E8.92711
G1 X82.793 Y93.507 E8.9413
G1 X84.07 Y93.38 E8.98398
G1 X84.934 Y93.355 E9.01273
G1 X149.497 Y93.35 E11.16011
G1 X150.476 Y93.363 E11.19267
G1 X151.199 Y93.399 E11.21675
G1 X151.573 Y93.431 E11.22923
G1 X152.411 Y93.538 E11.25733
G1 X152.67 Y93.582 E11.26607
G1 X153.62 Y93.79 E11.29842
G1 X154.009 Y93.895 E11.31182
G1 X155.128 Y94.268 E11.35105
G1 X155.577 Y94.447 E11.36713
G1 X156.556 Y94.899 E11.40299
G1 X156.814 Y95.035 E11.41269
G1 X157.637 Y95.519 E11.44445
G1 X157.937 Y95.715 E11.45636
G1 X158.702 Y96.267 E11.48774
G1 X159.052 Y96.545 E11.50261
G1 X159.734 Y97.137 E11.53264
G1 X160.141 Y97.547 E11.55186
G1 X160.453 Y97.879 E11.56701
G1 X161.036 Y98.557 E11.59675
G1 X161.202 Y98.768 E11.60568
G1 X161.736 Y99.512 E11.63614
G1 X161.952 Y99.844 E11.64932
G1 X162.487 Y100.77 E11.68489
G1 X162.659 Y101.107 E11.69747
G1 X163.091 Y102.074 E11.7327
G1 X163.231 Y102.437 E11.74564
G1 X163.567 Y103.471 E11.7818
G1 X163.666 Y103.841 E11.79454
G1 X163.878 Y104.823 E11.82795
G1 X163.936 Y105.176 E11.83985
G1 X164.057 Y106.289 E11.87709
G1 X164.086 Y106.835 E11.89527
G1 X164.1 Y107.373 E11.91317
G1 X164.105 Y127.029 E12.56693
G1 X164.092 Y128.019 E12.59986
G1 X164.051 Y128.833 E12.62697
G1 X163.951 Y129.725 E12.65682
G1 X163.893 Y130.093 E12.66922
G1 X163.631 Y131.283 E12.70974
G1 X163.492 Y131.774 E12.72672
G1 X163.093 Y132.919 E12.76704
G1 X162.948 Y133.267 E12.77958
G1 X162.555 Y134.102 E12.81028
G1 X162.42 Y134.358 E12.8199
G1 X161.952 Y135.156 E12.85067
G1 X161.713 Y135.524 E12.86527
G1 X161.188 Y136.258 E12.89528
G1 X160.593 Y136.966 E12.92604
G1 X159.985 Y137.612 E12.95555
G1 X159.796 Y137.796 E12.96432
G1 X159.1 Y138.414 E12.99528
G1 X158.795 Y138.661 E13.00833
G1 X157.907 Y139.304 E13.0448
G1 X157.577 Y139.517 E13.05786
G1 X156.68 Y140.034 E13.0923
G1 X156.327 Y140.214 E13.10547
G1 X155.331 Y140.656 E13.14172
G1 X154.98 Y140.79 E13.15421
G1 X153.968 Y141.117 E13.18959
G1 X153.604 Y141.214 E13.20212
G1 X152.628 Y141.424 E13.23532
G1 X152.207 Y141.493 E13.24951
G1 X150.93 Y141.62 E13.29219
G1 X150.066 Y141.645 E13.32094
G1 X85.503 Y141.65 E15.46832
G1 X84.528 Y141.637 E15.50075
G1 X83.818 Y141.602 E15.52439
G1 X83.439 Y141.57 E15.53704
G1 X82.589 Y141.462 E15.56554
G1 X82.33 Y141.418 E15.57428
G1 X81.38 Y141.21 E15.60662
G1 X80.991 Y141.105 E15.62002
G1 X79.872 Y140.732 E15.65926
G1 X79.423 Y140.553 E15.67533
G1 X78.444 Y140.101 E15.7112
G1 X78.186 Y139.965 E15.7209
G1 X77.371 Y139.486 E15.75234
G1 X77.006 Y139.248 E15.76683
G1 X76.272 Y138.722 E15.79687
G1 X75.591 Y138.149 E15.82647
G1 X74.911 Y137.506 E15.85759
G1 X74.711 Y137.299 E15.86717
G1 X74.097 Y136.603 E15.89804
G1 X73.855 Y136.302 E15.91088
G1 X73.227 Y135.432 E15.94657
G1 X73.021 Y135.112 E15.95923
G1 X72.5 Y134.202 E15.9941
G1 X72.315 Y133.837 E16.00771
G1 X71.873 Y132.835 E16.04414
G1 X71.744 Y132.494 E16.05627
G1 X71.432 Y131.525 E16.09012
G1 X71.335 Y131.163 E16.10259
G1 X71.121 Y130.173 E16.13628
G1 X71.052 Y129.752 E16.15047
G1 X70.925 Y128.472 E16.19325
G1 X70.899 Y127.581 E16.2229
G1 X70.896 Y107.777 E16.88158
G1 X70.909 Y106.947 E16.90919
G1 X70.947 Y106.22 E16.9334
G1 X70.978 Y105.865 E16.94525
G1 X71.085 Y105.031 E16.97322
G1 X71.129 Y104.774 E16.98189
G1 X71.369 Y103.717 E17.01794
G1 X71.508 Y103.226 E17.03492
G1 X71.903 Y102.091 E17.07489
G1 X72.048 Y101.742 E17.08746
G1 X72.444 Y100.899 E17.11844
G1 X72.58 Y100.641 E17.12814
G1 X73.061 Y99.823 E17.1597
G1 X73.262 Y99.515 E17.17193
G1 X73.861 Y98.69 E17.20584
G1 X74.093 Y98.402 E17.21814
G1 X74.774 Y97.639 E17.25216
G1 X75.061 Y97.348 E17.26575
G1 X75.9 Y96.586 E17.30345
G1 X76.201 Y96.342 E17.31633
G1 F2700 E12.31633
;MESH:The_Case_-_Lid.stl
G0 F6000 X80.454 Y106.793
G0 X81.795 Y117.012
;TYPE:WALL-INNER
G1 F2700 E17.31633
G1 F809.4 X81.782 Y117.2 E17.32563
G1 F810.8 X81.793 Y117.565 E17.3436
G1 F2700 E12.3436
G0 F6000 X82.22 Y116.509
G0 X82.627 Y116.031
G0 X83.258 Y115.734
G0 X83.931 Y115.734
G0 X84.554 Y116.025
G0 X84.886 Y116.376
G0 X85.048 Y116.681
G0 X85.401 Y116.585
G0 X108.785 Y111.296
G0 X110.444 Y111.773
G0 X111.17 Y111.77
G1 F2700 E17.3436
G1 F1006.3 X109.348 Y111.282 E17.41841
G1 X109.63 Y111.457 E17.43158
G1 X109.924 Y111.741 E17.44779
G1 X110.145 Y112.045 E17.4627
G1 X111.17 Y111.77 E17.50479
G1 F2700 E12.50479
G0 F6000 X110.444 Y111.773
G0 X112.071 Y111.773
G0 X114.269 Y115.859
G0 X117.155 Y117.053
G1 F2700 E17.50479
G1 F1200 X116.534 Y116.768 E17.52751
G1 X116.075 Y116.236 E17.55088
G1 X115.916 Y115.676 E17.57025
G1 X115.906 Y115.449 E17.5778
G1 X115.975 Y115.017 E17.59235
G1 F1194 X116.166 Y114.57 E17.6086
G1 F1182.3 X116.662 Y114.092 E17.63186
G1 F1134.8 X117.317 Y113.88 E17.65607
G1 F1043.5 X117.947 Y113.862 E17.68018
G1 F1054.9 X118.49 Y114.179 E17.70397
G1 F1159.4 X118.84 Y114.621 E17.72337
G1 F1200 X118.958 Y114.845 E17.7318
G1 X119.107 Y115.39 E17.75059
G1 X118.999 Y116.061 E17.77319
G1 X118.741 Y116.485 E17.7897
G1 X118.437 Y116.785 E17.80391
G1 X117.843 Y117.052 E17.82557
G1 X117.155 Y117.053 E17.84845
G0 F6000 X116.969 Y117.703
G0 X115.499 Y117.077
G0 X115.114 Y116.541
G0 X114.5 Y116.238
G0 X114.141 Y116.191
G0 X113.554 Y116.305
G0 X113.049 Y116.67
G0 X112.743 Y117.214
G0 X112.695 Y117.835
G0 X112.896 Y118.38
G0 X113.632 Y119.305
G0 X114.519 Y120.03
G0 X115.343 Y120.454
G0 X117.194 Y121.173
G0 X117.2 Y121.072
G1 F1200 X116.651 Y121.013 E17.86681
G1 X116.063 Y120.892 E17.88678
G1 X115.481 Y120.705 E17.90711
G1 X114.911 Y120.444 E17.92796
G1 X114.4 Y120.144 E17.94767
G1 X113.928 Y119.793 E17.96724
G1 X113.522 Y119.424 E17.98548
G1 X113.123 Y118.972 E18.00554
G1 X112.753 Y118.457 E18.02663
G1 X112.53 Y117.85 E18.04814
G1 X112.589 Y117.152 E18.07144
G1 X112.856 Y116.675 E18.08962
G1 X113.03 Y116.48 E18.09831
G1 X113.483 Y116.155 E18.11685
G1 X114.034 Y116.043 E18.13555
G1 X114.24 Y116.038 E18.14241
G1 X114.58 Y116.101 E18.15391
G1 X115.105 Y116.355 E18.17331
G1 X115.284 Y116.503 E18.18103
G1 X115.62 Y116.974 E18.20027
G1 X115.887 Y117.265 E18.21341
G1 X116.182 Y117.48 E18.22555
G1 X116.405 Y117.61 E18.23414
G1 X116.636 Y117.716 E18.24259
G1 X116.994 Y117.834 E18.25513
G1 X117.367 Y117.872 E18.2676
G1 X117.629 Y117.872 E18.27631
G1 X118.015 Y117.831 E18.28922
G1 X118.359 Y117.717 E18.30127
G1 X118.592 Y117.61 E18.3098
G1 X118.815 Y117.481 E18.31837
G1 X119.128 Y117.25 E18.33131
G1 X119.374 Y116.976 E18.34356
G1 X119.685 Y116.537 E18.36145
G1 X120.022 Y116.268 E18.37579
G1 X120.519 Y116.081 E18.39345
G1 X120.773 Y116.045 E18.40199
G1 X121.341 Y116.087 E18.42093
G1 X121.938 Y116.428 E18.4438
G1 X122.319 Y116.955 E18.46543
G1 X122.457 Y117.354 E18.47947
G1 X122.427 Y118.01 E18.50131
G1 X122.28 Y118.405 E18.51533
G1 X121.849 Y119.003 E18.53984
G1 X121.464 Y119.434 E18.55907
G1 X121.052 Y119.808 E18.57757
G1 X120.597 Y120.144 E18.59639
G1 X120.058 Y120.458 E18.61713
G1 X119.515 Y120.705 E18.63697
G1 X118.934 Y120.891 E18.65726
G1 X118.346 Y121.013 E18.67724
G1 X117.804 Y121.068 E18.69536
G1 X117.2 Y121.072 E18.71545
G1 F2700 E13.71545
G0 F6000 X117.194 Y121.173
G0 X116.994 Y123.123
G0 X116.913 Y123.786
G0 X116.991 Y125.064
G1 F2700 E18.71545
G1 F1200 X115.986 Y124.957 E18.74906
G1 X115.002 Y124.749 E18.78251
G1 X114.056 Y124.439 E18.81562
G1 X113.11 Y124.017 E18.85008
G1 X112.234 Y123.51 E18.88374
G1 X111.417 Y122.911 E18.91744
G1 X110.69 Y122.247 E18.95018
G1 X109.984 Y121.451 E18.98557
G1 X109.383 Y120.615 E19.01982
G1 X109.159 Y120.008 E19.04134
G1 X109.201 Y119.455 E19.05978
G1 X109.254 Y119.249 E19.06686
G1 X109.563 Y118.706 E19.08764
G1 X110.118 Y118.309 E19.11033
G1 X110.766 Y118.181 E19.1323
G1 X111.182 Y118.234 E19.14625
G1 X111.734 Y118.512 E19.16681
G1 X112.005 Y118.784 E19.17958
G1 X112.498 Y119.472 E19.20773
G1 X112.955 Y119.986 E19.2306
G1 X113.249 Y120.263 E19.24404
G1 X113.451 Y120.429 E19.25273
G1 X113.991 Y120.829 E19.27509
G1 X114.574 Y121.168 E19.29752
G1 X115.196 Y121.447 E19.32019
G1 X115.838 Y121.655 E19.34264
G1 X116.488 Y121.799 E19.36478
G1 X117.159 Y121.867 E19.38721
G1 X117.84 Y121.868 E19.40986
G1 X118.508 Y121.799 E19.4322
G1 X119.158 Y121.656 E19.45433
G1 X119.799 Y121.447 E19.47676
G1 X120.422 Y121.169 E19.49945
G1 X121.006 Y120.829 E19.52192
G1 X121.646 Y120.357 E19.54837
G1 X122.053 Y119.972 E19.56701
G1 X122.498 Y119.472 E19.58927
G1 X123.06 Y118.692 E19.62124
G1 X123.411 Y118.412 E19.63618
G1 X123.93 Y118.224 E19.65454
G1 X124.129 Y118.2 E19.6612
G1 X124.713 Y118.248 E19.68069
G1 X125.315 Y118.582 E19.70359
G1 X125.713 Y119.141 E19.72642
G1 X125.842 Y119.777 E19.748
G1 X125.794 Y120.179 E19.76147
G1 X125.649 Y120.567 E19.77524
G1 X124.997 Y121.471 E19.81231
G1 X124.306 Y122.247 E19.84687
G1 X123.58 Y122.911 E19.8796
G1 X122.734 Y123.528 E19.91442
G1 X121.888 Y124.018 E19.94694
G1 X120.94 Y124.438 E19.98143
G1 X119.964 Y124.756 E20.01557
G1 X119.01 Y124.956 E20.04799
G1 X118.006 Y125.063 E20.08157
G1 X116.991 Y125.064 E20.11533
G0 F6000 X116.916 Y125.758
G0 X113.694 Y125.33
G0 X109.251 Y122.072
G0 X108.49 Y121.011
G0 X108.03 Y120.645
G0 X107.425 Y120.498
G0 X106.815 Y120.616
G0 X106.31 Y120.981
G0 X106.004 Y121.525
G0 X105.955 Y122.146
G0 X106.158 Y122.692
G0 X107.003 Y123.872
G0 X107.945 Y124.931
G0 X108.992 Y125.883
G0 X110.135 Y126.722
G0 X111.359 Y127.434
G0 X112.652 Y128.015
G0 X113.743 Y128.371
G0 X116.748 Y129.057
G1 F1200 X115.33 Y128.903 E20.16277
G1 X113.925 Y128.599 E20.21058
G1 X112.557 Y128.148 E20.25849
G1 X111.313 Y127.588 E20.30386
G1 X110.017 Y126.837 E20.35368
G1 X108.862 Y125.987 E20.40138
G1 X107.854 Y125.063 E20.44686
G1 X106.856 Y123.943 E20.49676
G1 X106.016 Y122.763 E20.54493
G1 X105.791 Y122.172 E20.56596
G1 X105.836 Y121.577 E20.58581
G1 X105.884 Y121.406 E20.59172
G1 X106.193 Y120.869 E20.61232
G1 X106.752 Y120.463 E20.6353
G1 X107.416 Y120.333 E20.65781
G1 X108.096 Y120.494 E20.68105
G1 X108.608 Y120.899 E20.70276
G1 X109.374 Y121.968 E20.7465
G1 X110.107 Y122.789 E20.78311
G1 X110.913 Y123.523 E20.81937
G1 X111.798 Y124.173 E20.85589
G1 X112.744 Y124.725 E20.89232
G1 X113.757 Y125.18 E20.92925
G1 X114.797 Y125.519 E20.96563
G1 X115.859 Y125.746 E21.00176
G1 X116.949 Y125.863 E21.03822
G1 X118.047 Y125.864 E21.07474
G1 X119.137 Y125.747 E21.1112
G1 X120.203 Y125.52 E21.14745
G1 X121.239 Y125.18 E21.18371
G1 X122.253 Y124.725 E21.22068
G1 X123.198 Y124.173 E21.25708
G1 X124.083 Y123.522 E21.29362
G1 X124.889 Y122.789 E21.32986
G1 X125.623 Y121.967 E21.36651
G1 X126.425 Y120.851 E21.41222
G1 X126.755 Y120.584 E21.42634
G1 X127.377 Y120.343 E21.44852
G1 X127.987 Y120.39 E21.46887
G1 X128.165 Y120.445 E21.47507
G1 X128.606 Y120.696 E21.49195
G1 X128.736 Y120.814 E21.49779
G1 X129.082 Y121.301 E21.51766
G1 X129.215 Y121.943 E21.53946
G1 X129.158 Y122.335 E21.55264
G1 X129.02 Y122.704 E21.56574
G1 X128.101 Y123.991 E21.61834
G1 X127.145 Y125.064 E21.66614
G1 X126.083 Y126.029 E21.71386
G1 X124.979 Y126.837 E21.75937
G1 X123.687 Y127.588 E21.80907
G1 X122.383 Y128.171 E21.85658
G1 X121.071 Y128.599 E21.90248
G1 X119.648 Y128.907 E21.9509
G1 X118.248 Y129.057 E21.99774
G1 X116.748 Y129.057 E22.04763
G1 F2700 E17.04763
G0 F6000 X119.617 Y128.752
G0 X121.001 Y128.455
G0 X122.348 Y128.015
G0 X123.641 Y127.434
G0 X124.865 Y126.722
G0 X126.008 Y125.883
