;FLAVOR:Marlin
;TIME:2434
;Filament used: 1.59292m
;Layer height: 0.12
;MINX:75.85
;MINY:94.616
;MINZ:0.12
;MAXX:159.15
;MAXY:140.383
;MAXZ:5.04
;TARGET_MACHINE.NAME:Creality Ender-3
;Generated with Cura_SteamEngine 5.6.0
M140 S65
M105
M190 S65
M104 S205
M105
M109 S205
M82 ;absolute extrusion mode
; Ender 3 Custom Start G-code
G92 E0 ; Reset Extruder
G28 ; Home all axes
G29 ; Autolevel
G1 Z2.0 F3000 ; Move Z Axis up little to prevent scratching of Heat Bed
G1 X0.1 Y20 Z0.3 F5000.0 ; Move to start position
G1 X0.1 Y200.0 Z0.3 F1500.0 E15 ; Draw the first line
G1 X0.4 Y200.0 Z0.3 F5000.0 ; Move to side a little
G1 X0.4 Y20 Z0.3 F1500.0 E30 ; Draw the second line
G92 E0 ; Reset Extruder
G1 Z2.0 F3000 ; Move Z Axis up little to prevent scratching of Heat Bed
G1 X5 Y20 Z0.3 F5000.0 ; Move over to prevent blob squish
G92 E0
G92 E0
G1 F2700 E-5
;LAYER_COUNT:42
;LAYER:0
M107
M205 X8 Y8
G0 F6000 X78.137 Y95.788 Z0.12
;TYPE:SKIRT
G1 F2700 E0
G1 F1200 X79.645 Y94.888 E0.03505
G1 X80.996 Y94.666 E0.06237
G1 X153.971 Y94.616 E1.51866
G1 X155.386 Y94.964 E1.54774
G1 X156.902 Y95.75 E1.58182
G1 X157.978 Y96.903 E1.61329
G1 X158.878 Y98.411 E1.64834
G1 X159.1 Y99.762 E1.67566
G1 X159.15 Y135.205 E2.38297
G1 X158.802 Y136.62 E2.41204
G1 X158.016 Y138.136 E2.44612
G1 X156.863 Y139.212 E2.47759
G1 X155.355 Y140.112 E2.51264
G1 X154.004 Y140.334 E2.53996
G1 X81.029 Y140.383 E3.99626
G1 X79.614 Y140.035 E4.02534
G1 X78.098 Y139.249 E4.05942
G1 X77.022 Y138.096 E4.09089
G1 X76.122 Y136.588 E4.12593
G1 X75.9 Y135.237 E4.15326
G1 X75.85 Y99.795 E4.86054
G1 X76.198 Y98.38 E4.88962
G1 X76.984 Y96.864 E4.9237
G1 X78.137 Y95.788 E4.95517
G0 F6000 X78.379 Y96.109
G1 F1200 X79.783 Y95.271 E4.9878
G1 X81.061 Y95.061 E5.01365
G1 X153.925 Y95.016 E6.46773
G1 X155.243 Y95.34 E6.49481
G1 X156.657 Y96.073 E6.52659
G1 X157.657 Y97.145 E6.55585
G1 X158.495 Y98.549 E6.58848
G1 X158.705 Y99.827 E6.61433
G1 X158.75 Y135.159 E7.31941
G1 X158.426 Y136.477 E7.3465
G1 X157.693 Y137.891 E7.37828
G1 X156.621 Y138.891 E7.40754
G1 X155.217 Y139.729 E7.44017
G1 X153.939 Y139.939 E7.46602
G1 X81.075 Y139.983 E8.9201
G1 X79.757 Y139.659 E8.94718
G1 X78.343 Y138.926 E8.97896
G1 X77.343 Y137.854 E9.00822
G1 X76.505 Y136.45 E9.04085
G1 X76.295 Y135.172 E9.0667
G1 X76.25 Y99.841 E9.77176
G1 X76.574 Y98.523 E9.79885
G1 X77.307 Y97.109 E9.83063
G1 X78.379 Y96.109 E9.85989
G0 F6000 X78.624 Y96.428
G1 F1200 X79.921 Y95.654 E9.89003
G1 X81.126 Y95.456 E9.9144
G1 X153.879 Y95.416 E11.36627
G1 X155.1 Y95.716 E11.39136
G1 X156.41 Y96.395 E11.4208
G1 X157.338 Y97.39 E11.44795
G1 X158.112 Y98.687 E11.4781
G1 X158.31 Y99.892 E11.50247
G1 X158.35 Y135.113 E12.20534
G1 X158.05 Y136.334 E12.23043
G1 X157.371 Y137.644 E12.25988
G1 X156.376 Y138.572 E12.28703
G1 X155.079 Y139.346 E12.31717
G1 X153.874 Y139.544 E12.34154
G1 X81.121 Y139.583 E13.7934
G1 X79.9 Y139.283 E13.81849
G1 X78.59 Y138.604 E13.84794
G1 X77.662 Y137.609 E13.87509
G1 X76.888 Y136.312 E13.90523
G1 X76.69 Y135.107 E13.9296
G1 X76.65 Y99.887 E14.63246
G1 X76.95 Y98.666 E14.65755
G1 X77.629 Y97.356 E14.68699
G1 X78.624 Y96.428 E14.71415
G0 F6000 X78.866 Y96.75
G1 F1200 X80.061 Y96.037 E14.74192
G1 X81.191 Y95.851 E14.76477
G1 X153.833 Y95.816 E16.21442
G1 X154.957 Y96.092 E16.23752
G1 X156.163 Y96.717 E16.26462
G1 X157.016 Y97.632 E16.28959
G1 X157.729 Y98.827 E16.31736
G1 X157.915 Y99.957 E16.34021
G1 X157.95 Y135.067 E17.04087
G1 X157.674 Y136.191 E17.06397
G1 X157.049 Y137.397 E17.09107
G1 X156.134 Y138.25 E17.11604
G1 X154.939 Y138.963 E17.14381
G1 X153.809 Y139.149 E17.16666
G1 X81.167 Y139.183 E18.61631
G1 X80.043 Y138.907 E18.63941
G1 X78.837 Y138.282 E18.66651
G1 X77.984 Y137.367 E18.69148
G1 X77.271 Y136.172 E18.71925
G1 X77.085 Y135.042 E18.7421
G1 X77.05 Y99.933 E19.44274
G1 X77.326 Y98.809 E19.46584
G1 X77.951 Y97.603 E19.49294
G1 X78.866 Y96.75 E19.51791
G0 F6000 X79.108 Y97.072
G1 F1200 X80.201 Y96.42 E19.5433
G1 X81.256 Y96.246 E19.56464
G1 X153.786 Y96.216 E21.01206
G1 X154.815 Y96.469 E21.0332
G1 X155.916 Y97.039 E21.05795
G1 X156.694 Y97.874 E21.08072
G1 X157.346 Y98.967 E21.10612
G1 X157.52 Y100.022 E21.12746
G1 X157.55 Y135.02 E21.82588
G1 X157.297 Y136.049 E21.84703
G1 X156.727 Y137.15 E21.87177
G1 X155.892 Y137.928 E21.89454
G1 X154.799 Y138.58 E21.91994
G1 X153.744 Y138.754 E21.94128
G1 X81.214 Y138.783 E23.38869
G1 X80.185 Y138.53 E23.40984
G1 X79.084 Y137.96 E23.43458
G1 X78.306 Y137.125 E23.45736
G1 X77.654 Y136.032 E23.48276
G1 X77.48 Y134.977 E23.50409
G1 X77.45 Y99.98 E24.2025
G1 X77.703 Y98.951 E24.22364
G1 X78.273 Y97.85 E24.24838
G1 X79.108 Y97.072 E24.27116
G0 F6000 X79.35 Y97.394
G1 F1200 X80.341 Y96.803 E24.29419
G1 X81.321 Y96.641 E24.31401
G1 X153.74 Y96.616 E25.75921
G1 X154.672 Y96.845 E25.77836
G1 X155.669 Y97.361 E25.80076
G1 X156.372 Y98.116 E25.82135
G1 X156.963 Y99.107 E25.84438
G1 X157.125 Y100.087 E25.8642
G1 X157.15 Y134.974 E26.56041
G1 X156.921 Y135.906 E26.57956
G1 X156.405 Y136.903 E26.60196
G1 X155.65 Y137.606 E26.62255
G1 X154.659 Y138.197 E26.64558
G1 X153.679 Y138.359 E26.6654
G1 X81.26 Y138.383 E28.1106
G1 X80.328 Y138.154 E28.12975
G1 X79.331 Y137.638 E28.15215
G1 X78.628 Y136.883 E28.17274
G1 X78.037 Y135.892 E28.19577
G1 X77.875 Y134.912 E28.21559
G1 X77.85 Y100.026 E28.91178
G1 X78.079 Y99.094 E28.93093
G1 X78.595 Y98.097 E28.95333
G1 X79.35 Y97.394 E28.97392
G0 F6000 X79.589 Y97.718
G1 F1200 X80.481 Y97.186 E28.99465
G1 X81.386 Y97.036 E29.01295
G1 X153.694 Y97.016 E30.45594
G1 X154.529 Y97.221 E30.47309
G1 X155.424 Y97.684 E30.4932
G1 X156.048 Y98.355 E30.51149
G1 X156.58 Y99.247 E30.53222
G1 X156.73 Y100.152 E30.55052
G1 X156.75 Y134.928 E31.24452
G1 X156.545 Y135.763 E31.26167
G1 X156.082 Y136.658 E31.28178
G1 X155.411 Y137.282 E31.30007
G1 X154.519 Y137.814 E31.32079
G1 X153.614 Y137.964 E31.3391
G1 X81.306 Y137.983 E32.78209
G1 X80.471 Y137.778 E32.79924
G1 X79.576 Y137.315 E32.81935
G1 X78.952 Y136.644 E32.83764
G1 X78.42 Y135.752 E32.85837
G1 X78.27 Y134.847 E32.87667
G1 X78.25 Y100.072 E33.57064
G1 X78.455 Y99.237 E33.5878
G1 X78.918 Y98.342 E33.60791
G1 X79.589 Y97.718 E33.6262
G0 F6000 X79.828 Y98.042
G1 F1200 X80.621 Y97.569 E33.64462
G1 X81.452 Y97.431 E33.66143
G1 X153.648 Y97.416 E35.10218
G1 X154.386 Y97.597 E35.11735
G1 X155.179 Y98.007 E35.13516
G1 X155.724 Y98.594 E35.15115
G1 X156.197 Y99.387 E35.16957
G1 X156.335 Y100.218 E35.18639
G1 X156.35 Y134.882 E35.87814
G1 X156.169 Y135.62 E35.89331
G1 X155.759 Y136.413 E35.91112
G1 X155.172 Y136.958 E35.92711
G1 X154.379 Y137.431 E35.94553
G1 X153.548 Y137.569 E35.96234
G1 X81.352 Y137.583 E37.40309
G1 X80.614 Y137.402 E37.41826
G1 X79.821 Y136.992 E37.43607
G1 X79.276 Y136.405 E37.45206
G1 X78.803 Y135.612 E37.47048
G1 X78.665 Y134.781 E37.48729
G1 X78.65 Y100.118 E38.17903
G1 X78.831 Y99.38 E38.1942
G1 X79.241 Y98.587 E38.21201
G1 X79.828 Y98.042 E38.228
G0 F6000 X80.067 Y98.366
G1 F1200 X80.761 Y97.952 E38.24412
G1 X81.518 Y97.826 E38.25944
G1 X153.598 Y97.816 E39.69787
G1 X154.247 Y97.975 E39.71121
G1 X154.934 Y98.33 E39.72664
G1 X155.4 Y98.833 E39.74032
G1 X155.814 Y99.527 E39.75645
G1 X155.94 Y100.284 E39.77176
G1 X155.95 Y134.832 E40.46121
G1 X155.791 Y135.481 E40.47454
G1 X155.436 Y136.168 E40.48997
G1 X154.933 Y136.634 E40.50366
G1 X154.239 Y137.048 E40.51978
G1 X153.482 Y137.174 E40.5351
G1 X81.402 Y137.183 E41.97353
G1 X80.753 Y137.024 E41.98687
G1 X80.066 Y136.669 E42.0023
G1 X79.6 Y136.166 E42.01598
G1 X79.186 Y135.472 E42.03211
G1 X79.06 Y134.715 E42.04742
G1 X79.05 Y100.168 E42.73685
G1 X79.209 Y99.519 E42.75018
G1 X79.564 Y98.832 E42.76561
G1 X80.067 Y98.366 E42.7793
G0 F6000 X80.306 Y98.69
G1 F1200 X80.901 Y98.335 E42.79312
G1 X81.584 Y98.221 E42.80694
G1 X153.548 Y98.216 E44.24306
G1 X154.108 Y98.353 E44.25457
G1 X154.688 Y98.653 E44.2676
G1 X155.076 Y99.072 E44.27899
G1 X155.431 Y99.667 E44.29282
G1 X155.545 Y100.35 E44.30664
G1 X155.55 Y134.782 E44.99377
G1 X155.413 Y135.342 E45.00527
G1 X155.113 Y135.922 E45.0183
G1 X154.694 Y136.31 E45.0297
G1 X154.099 Y136.665 E45.04352
G1 X153.416 Y136.779 E45.05734
G1 X81.452 Y136.783 E46.49346
G1 X80.892 Y136.646 E46.50497
G1 X80.312 Y136.346 E46.518
G1 X79.924 Y135.927 E46.52939
G1 X79.569 Y135.332 E46.54322
G1 X79.455 Y134.649 E46.55704
G1 X79.45 Y100.218 E47.24415
G1 X79.587 Y99.658 E47.25565
G1 X79.887 Y99.078 E47.26868
G1 X80.306 Y98.69 E47.28008
G0 F6000 X80.548 Y99.011
G1 F1200 X81.039 Y98.718 E47.29149
G1 X81.65 Y98.616 E47.30385
G1 X153.498 Y98.616 E48.73766
G1 X153.969 Y98.731 E48.74733
G1 X154.442 Y98.976 E48.75796
G1 X154.755 Y99.314 E48.76716
G1 X155.048 Y99.805 E48.77857
G1 X155.15 Y100.416 E48.79093
G1 X155.15 Y134.732 E49.47574
G1 X155.035 Y135.203 E49.48542
G1 X154.79 Y135.676 E49.49605
G1 X154.452 Y135.989 E49.50524
G1 X153.961 Y136.282 E49.51665
G1 X153.35 Y136.384 E49.52901
G1 X81.502 Y136.383 E50.96282
G1 X81.031 Y136.268 E50.97249
G1 X80.558 Y136.023 E50.98312
G1 X80.245 Y135.685 E50.99232
G1 X79.952 Y135.194 E51.00373
G1 X79.85 Y134.583 E51.01609
G1 X79.85 Y100.268 E51.70088
G1 X79.965 Y99.797 E51.71056
G1 X80.21 Y99.324 E51.72119
G1 X80.548 Y99.011 E51.73038
G0 F6000 X80.79 Y99.332
G1 F1200 X81.177 Y99.101 E51.73937
G1 X81.65 Y99.016 E51.74896
G1 X153.448 Y99.016 E53.18177
G1 X153.83 Y99.109 E53.18962
G1 X154.196 Y99.299 E53.19785
G1 X154.434 Y99.556 E53.20484
G1 X154.665 Y99.943 E53.21383
G1 X154.75 Y100.416 E53.22342
G1 X154.75 Y134.682 E53.90724
G1 X154.657 Y135.064 E53.91508
G1 X154.467 Y135.43 E53.92331
G1 X154.21 Y135.668 E53.9303
G1 X153.823 Y135.899 E53.9393
G1 X153.35 Y135.984 E53.94889
G1 X81.552 Y135.983 E55.38169
G1 X81.17 Y135.89 E55.38954
G1 X80.804 Y135.7 E55.39777
G1 X80.566 Y135.443 E55.40476
G1 X80.335 Y135.056 E55.41375
G1 X80.25 Y134.583 E55.42334
G1 X80.25 Y100.318 E56.10714
G1 X80.343 Y99.936 E56.11498
G1 X80.533 Y99.57 E56.12321
G1 X80.79 Y99.332 E56.1302
G0 F6000 X80.995 Y99.676
G1 F1200 X81.322 Y99.481 E56.1378
G1 X81.65 Y99.416 E56.14447
G1 X153.399 Y99.416 E57.5763
G1 X153.688 Y99.486 E57.58224
G1 X153.951 Y99.623 E57.58815
G1 X154.09 Y99.761 E57.59206
G1 X154.285 Y100.088 E57.59966
G1 X154.35 Y100.416 E57.60633
G1 X154.35 Y134.633 E58.28917
G1 X154.28 Y134.922 E58.29511
G1 X154.143 Y135.185 E58.30102
G1 X154.005 Y135.324 E58.30493
G1 X153.678 Y135.519 E58.31253
G1 X153.35 Y135.584 E58.3192
G1 X81.601 Y135.583 E59.75103
G1 X81.312 Y135.513 E59.75697
G1 X81.049 Y135.376 E59.76288
G1 X80.91 Y135.238 E59.76679
G1 X80.715 Y134.911 E59.77439
G1 X80.65 Y134.583 E59.78106
G1 X80.65 Y100.367 E60.46388
G1 X80.72 Y100.078 E60.46981
G1 X80.857 Y99.815 E60.47573
G1 X80.995 Y99.676 E60.47964
G0 F6000 X81.489 Y100.297
G1 F1200 X81.65 Y100.216 E60.48324
G1 X153.35 Y100.216 E61.91409
G1 X153.469 Y100.255 E61.91659
G1 X153.55 Y100.416 E61.92018
G1 X153.55 Y134.584 E62.60204
G1 X153.511 Y134.703 E62.60454
G1 X153.35 Y134.784 E62.60814
G1 X81.65 Y134.783 E64.03899
G1 X81.531 Y134.744 E64.04149
G1 X81.45 Y134.583 E64.04509
G1 X81.45 Y100.416 E64.72693
G1 X81.489 Y100.297 E64.72942
G0 F6000 X81.2 Y100.02
G1 F1200 X81.47 Y99.859 E64.7357
G1 X81.65 Y99.816 E64.73939
G1 X153.35 Y99.816 E66.17024
G1 X153.594 Y99.875 E66.17525
G1 X153.746 Y99.966 E66.17879
G1 X153.907 Y100.236 E66.18506
G1 X153.95 Y100.416 E66.18875
G1 X153.95 Y134.584 E66.87061
G1 X153.891 Y134.828 E66.87562
G1 X153.8 Y134.98 E66.87916
G1 X153.53 Y135.141 E66.88543
G1 X153.35 Y135.184 E66.88912
G1 X81.65 Y135.183 E68.31998
G1 X81.406 Y135.124 E68.32499
G1 X81.254 Y135.033 E68.32852
G1 X81.093 Y134.763 E68.33479
G1 X81.05 Y134.583 E68.33849
G1 X81.05 Y100.416 E69.02033
G1 X81.109 Y100.172 E69.02534
G1 X81.2 Y100.02 E69.02887
G1 F2700 E64.02887
;MESH:pwnagotchi-pisugar3-waveshare2-lid.stl
G0 F6000 X88.974 Y104.937
G0 X87.782 Y106.563
G0 X87.465 Y107.261
G0 X87.29 Y108.049
G0 X87.289 Y126.924
G0 X87.357 Y127.329
G0 X87.588 Y128.037
G0 X87.878 Y128.551
G0 X88.536 Y129.306
G0 X89.172 Y129.761
G0 X90.198 Y130.148
G0 X90.654 Y130.197
G0 X135.766 Y130.395
;TYPE:WALL-INNER
G1 F2700 E69.02887
G1 F1200 X90.981 Y130.395 E69.9226
G1 X90.557 Y130.367 E69.93108
G1 X90.155 Y130.303 E69.93921
G1 X89.217 Y129.951 E69.9592
G1 X88.987 Y129.828 E69.96441
G1 X88.432 Y129.431 E69.97802
G1 X88.117 Y129.125 E69.98679
G1 X87.74 Y128.634 E69.99914
G1 X87.442 Y128.11 E70.01117
G1 X87.198 Y127.363 E70.02685
G1 X87.138 Y126.997 E70.03425
G1 X87.112 Y126.588 E70.04243
G1 X87.112 Y108.394 E70.40551
G1 X87.139 Y107.975 E70.41389
G1 X87.211 Y107.574 E70.42202
G1 X87.312 Y107.204 E70.42968
G1 X87.589 Y106.596 E70.44301
G1 X87.726 Y106.376 E70.44818
G1 X88.29 Y105.688 E70.46594
G1 X88.484 Y105.508 E70.47122
G1 X89.066 Y105.093 E70.48548
G1 X89.631 Y104.831 E70.49791
G1 X90.249 Y104.654 E70.51074
G1 X90.564 Y104.606 E70.5171
G1 X90.977 Y104.581 E70.52536
G1 X135.757 Y104.581 E71.41899
G1 X136.183 Y104.607 E71.42751
G1 X136.584 Y104.669 E71.4356
G1 X137.528 Y105.027 E71.45575
G1 X137.753 Y105.147 E71.46084
G1 X138.304 Y105.539 E71.47433
G1 X138.64 Y105.866 E71.48369
G1 X139.104 Y106.494 E71.49927
G1 X139.368 Y107.047 E71.5115
G1 X139.545 Y107.617 E71.52341
G1 X139.615 Y108.088 E71.53291
G1 X139.632 Y108.438 E71.53991
G1 X139.632 Y126.529 E71.90093
G1 X139.601 Y127.014 E71.91063
G1 X139.535 Y127.378 E71.91801
G1 X139.418 Y127.791 E71.92658
G1 X139.267 Y128.173 E71.93478
G1 X138.656 Y129.095 E71.95685
G1 X138.311 Y129.429 E71.96643
G1 X137.677 Y129.883 E71.98199
G1 X137.118 Y130.139 E71.99426
G1 X136.494 Y130.32 E72.00723
G1 X136.179 Y130.369 E72.01359
G1 X135.766 Y130.395 E72.02185
G0 F6000 X135.745 Y129.996
G1 F1200 X91.003 Y129.996 E72.91473
G1 X90.683 Y129.979 E72.92112
G1 X90.263 Y129.916 E72.9296
G1 X89.28 Y129.547 E72.95055
G1 X88.656 Y129.092 E72.96596
G1 X88.389 Y128.824 E72.97351
G1 X88.1 Y128.447 E72.98299
G1 X87.808 Y127.944 E72.9946
G1 X87.581 Y127.226 E73.00962
G1 X87.533 Y126.933 E73.01555
G1 X87.511 Y126.568 E73.02285
G1 X87.511 Y108.414 E73.38513
G1 X87.534 Y108.039 E73.39263
G1 X87.583 Y107.74 E73.39867
G1 X87.689 Y107.343 E73.40687
G1 X87.986 Y106.69 E73.42119
G1 X88.648 Y105.883 E73.44202
G1 X89.269 Y105.44 E73.45724
G1 X89.728 Y105.227 E73.46734
G1 X90.331 Y105.046 E73.4799
G1 X90.687 Y104.995 E73.48708
G1 X90.996 Y104.98 E73.49325
G1 X135.737 Y104.98 E74.38611
G1 X136.121 Y105.002 E74.39378
G1 X136.48 Y105.058 E74.40104
G1 X137.458 Y105.428 E74.4219
G1 X138.012 Y105.822 E74.43547
G1 X138.335 Y106.125 E74.44431
G1 X138.76 Y106.701 E74.45859
G1 X138.976 Y107.155 E74.46863
G1 X139.16 Y107.743 E74.48092
G1 X139.216 Y108.108 E74.48829
G1 X139.232 Y108.438 E74.49488
G1 X139.232 Y126.529 E74.85591
G1 X139.207 Y126.947 E74.86427
G1 X139.16 Y127.222 E74.86983
G1 X139.046 Y127.645 E74.87858
G1 X138.913 Y127.983 E74.88582
G1 X138.344 Y128.842 E74.90639
G1 X138.021 Y129.144 E74.91521
G1 X137.474 Y129.537 E74.92865
G1 X136.945 Y129.773 E74.94021
G1 X136.425 Y129.926 E74.95103
G1 X136.056 Y129.98 E74.95847
G1 X135.745 Y129.996 E74.96468
G1 F2700 E69.96468
G0 F6000 X135.745 Y130.295
G0 X137.194 Y130.304
G0 X137.192 Y133.403
G0 X152.35 Y133.584
G1 F2700 E74.96468
G1 F1200 X152.35 Y101.416 E75.60663
G1 X82.65 Y101.416 E76.99757
G1 X82.651 Y133.582 E77.63948
G1 X152.35 Y133.584 E79.0304
G0 F6000 X152.75 Y133.984
G1 F1200 X152.75 Y101.016 E79.68831
G1 X82.25 Y101.016 E81.09521
G1 X82.251 Y133.982 E81.75309
G1 X152.75 Y133.984 E83.15997
G0 F6000 X153.15 Y134.384
;TYPE:WALL-OUTER
G1 F1200 X153.15 Y100.616 E83.83385
G1 X81.85 Y100.616 E85.25671
G1 X81.851 Y134.382 E85.93055
G1 X153.15 Y134.384 E87.3534
G1 F2700 E82.3534
G0 F6000 X152.88 Y134.114
G0 X135.712 Y133.403
G0 X135.712 Y130.575
G0 X135.714 Y130.296
G0 X135.714 Y129.596
G1 F2700 E87.3534
G1 F1200 X91.024 Y129.596 E88.24524
G1 X90.683 Y129.577 E88.25205
G1 X90.343 Y129.519 E88.25894
G1 X89.474 Y129.193 E88.27746
G1 X88.935 Y128.805 E88.29071
G1 X88.726 Y128.602 E88.29653
G1 X88.418 Y128.203 E88.30658
G1 X88.17 Y127.764 E88.31665
G1 X87.983 Y127.191 E88.32867
G1 X87.928 Y126.868 E88.33521
G1 X87.911 Y126.537 E88.34183
G1 X87.911 Y108.435 E88.70307
G1 X87.929 Y108.104 E88.70969
G1 X87.978 Y107.805 E88.71573
G1 X88.072 Y107.466 E88.72275
G1 X88.317 Y106.928 E88.73455
G1 X88.925 Y106.176 E88.75385
