;FLAVOR:Marlin
;TIME:3636
;Filament used: 2.33075m
;Layer height: 0.2
;MINX:84.756
;MINY:86.352
;MINZ:0.2
;MAXX:147.873
;MAXY:135.15
;MAXZ:37.2
;TARGET_MACHINE.NAME:Creality Ender-3
;Generated with Cura_SteamEngine 5.7.0
M140 S60
M105
M190 S60
M104 S210
M105
M109 S210
M82 ;absolute extrusion mode
; Ender 3 Custom Start G-code
G92 E0 ; Reset Extruder
G28 ; Home all axes
G29 ; Autolevel
G1 Z2.0 F3000 ; Move Z Axis up little to prevent scratching of Heat Bed
G1 X0.1 Y20 Z0.3 F5000.0 ; Move to start position
G1 X0.1 Y200.0 Z0.3 F1500.0 E15 ; Draw the first line
G1 X0.4 Y200.0 Z0.3 F5000.0 ; Move to side a little
G1 X0.4 Y20 Z0.3 F1500.0 E30 ; Draw the second line
G92 E0 ; Reset Extruder
G1 Z2.0 F3000 ; Move Z Axis up little to prevent scratching of Heat Bed
G1 X5 Y20 Z0.3 F5000.0 ; Move over to prevent blob squish
G92 E0
G92 E0
G1 F2700 E-5
;LAYER_COUNT:186
;LAYER:0
M107
M205 X8 Y8
G0 F6000 X91.72 Y89.859 Z0.2
;TYPE:SKIRT
G1 F2700 E0
G1 F1200 X92.379 Y89.192 E0.03119
G1 X93.066 Y88.606 E0.06122
G1 X93.861 Y88.042 E0.09364
G1 X94.672 Y87.571 E0.12483
G1 X95.522 Y87.172 E0.15606
G1 X96.37 Y86.861 E0.1861
G1 X97.311 Y86.609 E0.21851
G1 X98.238 Y86.448 E0.2498
G1 X99.294 Y86.365 E0.28503
G1 X99.901 Y86.352 E0.30522
G1 X134.718 Y86.352 E1.46324
G1 X135.58 Y86.364 E1.49191
G1 X136.517 Y86.42 E1.52314
G1 X137.445 Y86.559 E1.55434
G1 X138.358 Y86.78 E1.58559
G1 X139.214 Y87.068 E1.61563
G1 X140.106 Y87.458 E1.64801
G1 X140.927 Y87.911 E1.67919
G1 X141.678 Y88.413 E1.70924
G1 X142.437 Y89.025 E1.74167
G1 X143.111 Y89.678 E1.77288
G1 X143.725 Y90.387 E1.80408
G1 X144.275 Y91.148 E1.83531
G1 X144.737 Y91.924 E1.86534
G1 X145.16 Y92.801 E1.89773
G1 X145.489 Y93.679 E1.92891
G1 X145.74 Y94.584 E1.96015
G1 X145.911 Y95.511 E1.9915
G1 X146.006 Y96.641 E2.02922
G1 X146.02 Y97.273 E2.05024
G1 X146.02 Y98.389 E2.08736
G1 X146.057 Y100.978 E2.17348
G1 X146.166 Y103.543 E2.25887
G1 X146.342 Y106.028 E2.34173
G1 X146.592 Y108.557 E2.42625
G1 X146.913 Y111.065 E2.51035
G1 X147.307 Y113.573 E2.59479
G1 X147.704 Y115.766 E2.66892
G1 X147.831 Y116.713 E2.7007
G1 X147.873 Y117.651 E2.73192
G1 X147.832 Y118.59 E2.76319
G1 X147.707 Y119.518 E2.79433
G1 X147.514 Y120.386 E2.8239
G1 X147.219 Y121.48 E2.86159
G1 X146.996 Y122.24 E2.88793
G1 X146.686 Y123.143 E2.91969
G1 X146.303 Y124.001 E2.95094
G1 X145.846 Y124.82 E2.98213
G1 X145.312 Y125.603 E3.01366
G1 X144.418 Y126.652 E3.0595
G1 X143.732 Y127.356 E3.09219
G1 X143.036 Y128.036 E3.12455
G1 X142.32 Y128.67 E3.15636
G1 X141.656 Y129.165 E3.18391
G1 X140.869 Y129.704 E3.21564
G1 X140.11 Y130.209 E3.24596
G1 X138.015 Y131.689 E3.33127
G1 X136.194 Y133.047 E3.40682
G1 X135.417 Y133.572 E3.43801
G1 X134.596 Y134.028 E3.46925
G1 X133.738 Y134.408 E3.50046
G1 X132.85 Y134.712 E3.53168
G1 X131.938 Y134.936 E3.56291
G1 X131.013 Y135.078 E3.59404
G1 X130.193 Y135.135 E3.62138
G1 X129.545 Y135.15 E3.64294
G1 X105.681 Y135.149 E4.43666
G1 X104.977 Y135.139 E4.46007
G1 X104.024 Y135.082 E4.49183
G1 X103.095 Y134.943 E4.52307
G1 X102.182 Y134.722 E4.55431
G1 X101.295 Y134.422 E4.58546
G1 X100.534 Y134.092 E4.61305
G1 X98.568 Y133.147 E4.6856
G1 X96.207 Y132.083 E4.77173
G1 X93.393 Y130.915 E4.87307
G1 X92.541 Y130.523 E4.90426
G1 X91.726 Y130.057 E4.93548
G1 X90.984 Y129.542 E4.96553
G1 X89.947 Y128.644 E5.01115
G1 X88.772 Y127.483 E5.06609
G1 X88.287 Y126.983 E5.08926
G1 X87.687 Y126.307 E5.11932
G1 X87.107 Y125.525 E5.1517
G1 X86.619 Y124.724 E5.1829
G1 X86.2 Y123.876 E5.21436
G1 X85.753 Y122.665 E5.25729
G1 X85.318 Y121.211 E5.30777
G1 X85.138 Y120.564 E5.33011
G1 X84.929 Y119.649 E5.36133
G1 X84.801 Y118.719 E5.39255
G1 X84.756 Y117.781 E5.42378
G1 X84.794 Y116.844 E5.45497
G1 X84.909 Y115.948 E5.48502
G1 X85.137 Y114.926 E5.51985
G1 X85.387 Y114.025 E5.55095
G1 X86.215 Y111.178 E5.64956
G1 X86.852 Y108.744 E5.73324
G1 X87.425 Y106.264 E5.8179
G1 X87.935 Y103.736 E5.90368
G1 X88.357 Y101.291 E5.9862
G1 X88.714 Y98.8 E6.0699
G1 X89.059 Y95.753 E6.17189
G1 X89.207 Y94.826 E6.20311
G1 X89.436 Y93.916 E6.23432
G1 X89.745 Y93.03 E6.26553
G1 X90.131 Y92.174 E6.29676
G1 X90.592 Y91.357 E6.32796
G1 X91.123 Y90.583 E6.35918
G1 X91.72 Y89.859 E6.39039
G0 F6000 X92.005 Y90.14
G1 F1200 X92.639 Y89.496 E6.42045
G1 X93.326 Y88.91 E6.45048
G1 X94.063 Y88.388 E6.48052
G1 X94.843 Y87.933 E6.51056
G1 X95.66 Y87.548 E6.5406
G1 X96.508 Y87.237 E6.57064
G1 X97.38 Y87.003 E6.60067
G1 X98.27 Y86.847 E6.63072
G1 X99.303 Y86.765 E6.66519
G1 X99.91 Y86.752 E6.68538
G1 X134.713 Y86.752 E7.84293
G1 X135.557 Y86.763 E7.87101
G1 X136.459 Y86.816 E7.90106
G1 X137.352 Y86.948 E7.93108
G1 X138.23 Y87.159 E7.96112
G1 X139.086 Y87.447 E7.99115
G1 X139.913 Y87.809 E8.02118
G1 X140.705 Y88.244 E8.05123
G1 X141.456 Y88.746 E8.08128
G1 X142.159 Y89.313 E8.11132
G1 X142.809 Y89.94 E8.14136
G1 X143.401 Y90.622 E8.17139
G1 X143.931 Y91.353 E8.20142
G1 X144.393 Y92.129 E8.23146
G1 X144.786 Y92.942 E8.2615
G1 X145.104 Y93.787 E8.29153
G1 X145.347 Y94.657 E8.32157
G1 X145.512 Y95.545 E8.35161
G1 X145.607 Y96.675 E8.38933
G1 X145.62 Y97.282 E8.40952
G1 X145.62 Y98.389 E8.44634
G1 X145.657 Y100.995 E8.53302
G1 X145.766 Y103.56 E8.61841
G1 X145.944 Y106.067 E8.70201
G1 X146.195 Y108.608 E8.78693
G1 X146.516 Y111.116 E8.87103
G1 X146.913 Y113.644 E8.95614
G1 X147.31 Y115.837 E9.03027
G1 X147.431 Y116.732 E9.0603
G1 X147.473 Y117.634 E9.09034
G1 X147.435 Y118.537 E9.1204
G1 X147.316 Y119.432 E9.15043
G1 X147.128 Y120.282 E9.17938
G1 X146.835 Y121.367 E9.21676
G1 X146.612 Y122.127 E9.24311
G1 X146.32 Y122.981 E9.27312
G1 X145.953 Y123.807 E9.30319
G1 X145.515 Y124.596 E9.3332
G1 X145.008 Y125.344 E9.36326
G1 X144.131 Y126.373 E9.40822
G1 X143.452 Y127.07 E9.44059
G1 X142.756 Y127.75 E9.47295
G1 X142.081 Y128.349 E9.50297
G1 X141.43 Y128.835 E9.52999
G1 X140.648 Y129.371 E9.56152
G1 X139.879 Y129.882 E9.59223
G1 X137.784 Y131.362 E9.67754
G1 X135.969 Y132.716 E9.75286
G1 X135.222 Y133.223 E9.78289
G1 X134.433 Y133.663 E9.81293
G1 X133.608 Y134.03 E9.84297
G1 X132.754 Y134.324 E9.87301
G1 X131.877 Y134.541 E9.90305
G1 X130.985 Y134.679 E9.93308
G1 X130.184 Y134.735 E9.95978
G1 X129.545 Y134.75 E9.98104
G1 X105.687 Y134.749 E10.77456
G1 X104.983 Y134.739 E10.79798
G1 X104.082 Y134.686 E10.828
G1 X103.188 Y134.554 E10.85805
G1 X102.31 Y134.343 E10.88809
G1 X101.454 Y134.055 E10.91813
G1 X100.707 Y133.732 E10.9452
G1 X98.732 Y132.782 E11.01809
G1 X96.371 Y131.718 E11.10422
G1 X93.56 Y130.551 E11.20545
G1 X92.739 Y130.175 E11.23549
G1 X91.954 Y129.728 E11.26553
G1 X91.212 Y129.213 E11.29557
G1 X90.228 Y128.359 E11.33891
G1 X89.059 Y127.204 E11.39357
G1 X88.586 Y126.717 E11.41615
G1 X87.986 Y126.041 E11.44621
G1 X87.448 Y125.316 E11.47624
G1 X86.977 Y124.546 E11.50626
G1 X86.575 Y123.737 E11.5363
G1 X86.136 Y122.55 E11.5784
G1 X85.703 Y121.104 E11.6286
G1 X85.528 Y120.474 E11.65035
G1 X85.325 Y119.594 E11.68039
G1 X85.201 Y118.699 E11.71044
G1 X85.156 Y117.797 E11.74048
G1 X85.191 Y116.895 E11.7705
G1 X85.306 Y115.999 E11.80055
G1 X85.523 Y115.033 E11.83348
G1 X85.771 Y114.137 E11.8644
G1 X86.599 Y111.29 E11.96301
G1 X87.239 Y108.845 E12.04707
G1 X87.815 Y106.354 E12.13211
G1 X88.327 Y103.815 E12.21826
G1 X88.751 Y101.359 E12.30115
G1 X89.11 Y98.857 E12.38522
G1 X89.454 Y95.815 E12.48704
G1 X89.595 Y94.923 E12.51708
G1 X89.814 Y94.047 E12.54711
G1 X90.11 Y93.194 E12.57714
G1 X90.48 Y92.37 E12.60719
G1 X90.922 Y91.583 E12.63721
G1 X91.432 Y90.837 E12.66726
G1 X92.005 Y90.14 E12.69727
G1 F2700 E7.69727
G0 F6000 X97.41 Y114.55
G1 F2700 E12.69727
G1 F1200 X99.263 Y114.031 E12.76128
G1 X101.116 Y114.55 E12.82528
G1 X102.453 Y115.962 E12.88996
G1 X102.971 Y117.736 E12.95142
G1 X102.452 Y119.591 E13.01549
G1 X101.116 Y120.927 E13.07833
G1 X99.261 Y121.446 E13.1424
G1 X97.489 Y120.928 E13.2038
G1 X96.073 Y119.512 E13.27041
G1 X95.553 Y117.738 E13.33189
G1 X96.073 Y115.962 E13.39344
G1 X97.41 Y114.55 E13.45812
G0 F6000 X97.625 Y114.905
G1 F1200 X99.263 Y114.446 E13.5147
G1 X100.901 Y114.905 E13.57128
G1 X102.096 Y116.167 E13.62908
G1 X102.555 Y117.738 E13.68352
G1 X102.095 Y119.382 E13.7403
G1 X100.907 Y120.57 E13.79618
G1 X99.264 Y121.03 E13.85293
G1 X97.7 Y120.573 E13.90712
G1 X96.428 Y119.301 E13.96695
G1 X95.97 Y117.738 E14.02112
G1 X96.43 Y116.167 E14.07557
G1 X97.625 Y114.905 E14.13337
G0 F6000 X97.839 Y115.26
G1 F1200 X99.263 Y114.862 E14.18255
G1 X100.687 Y115.26 E14.23173
G1 X101.739 Y116.372 E14.28264
G1 X102.139 Y117.742 E14.33011
G1 X101.738 Y119.173 E14.37954
G1 X100.698 Y120.213 E14.42846
G1 X99.267 Y120.614 E14.47789
G1 X97.911 Y120.218 E14.52487
G1 X96.783 Y119.09 E14.57793
G1 X96.387 Y117.738 E14.62479
G1 X96.787 Y116.371 E14.67216
G1 X97.839 Y115.26 E14.72305
G0 F6000 X98.055 Y115.615
G1 F1200 X99.263 Y115.277 E14.76477
G1 X100.471 Y115.615 E14.80649
G1 X101.382 Y116.577 E14.85056
G1 X101.723 Y117.745 E14.89103
G1 X101.382 Y118.963 E14.9331
G1 X100.488 Y119.857 E14.97515
G1 X99.27 Y120.198 E15.01722
G1 X98.121 Y119.862 E15.05703
G1 X97.138 Y118.879 E15.10327
G1 X96.804 Y117.738 E15.14281
G1 X97.144 Y116.577 E15.18305
G1 X98.055 Y115.615 E15.22712
G0 F6000 X98.269 Y115.97
G1 F1200 X99.263 Y115.692 E15.26144
G1 X100.257 Y115.97 E15.29577
G1 X101.025 Y116.781 E15.33292
G1 X101.307 Y117.747 E15.36639
G1 X101.025 Y118.754 E15.40118
G1 X100.279 Y119.5 E15.43626
G1 X99.273 Y119.782 E15.47101
G1 X98.332 Y119.507 E15.50362
G1 X97.492 Y118.667 E15.54313
G1 X97.221 Y117.74 E15.57525
G1 X97.501 Y116.781 E15.60848
G1 X98.269 Y115.97 E15.64563
G0 F6000 X98.483 Y116.326
G1 F1200 X99.263 Y116.107 E15.67258
G1 X100.043 Y116.326 E15.69952
G1 X100.668 Y116.985 E15.72973
G1 X100.891 Y117.749 E15.7562
G1 X100.667 Y118.546 E15.78374
G1 X100.071 Y119.142 E15.81177
G1 X99.274 Y119.365 E15.8393
G1 X98.543 Y119.152 E15.86462
G1 X97.847 Y118.456 E15.89736
G1 X97.637 Y117.738 E15.92224
G1 X97.857 Y116.987 E15.94827
G1 X98.483 Y116.326 E15.97855
G0 F6000 X98.697 Y116.682
G1 F1200 X99.263 Y116.523 E15.9981
G1 X99.829 Y116.682 E16.01766
G1 X100.311 Y117.191 E16.04097
G1 X100.475 Y117.751 E16.06038
G1 X100.31 Y118.339 E16.08069
G1 X99.864 Y118.785 E16.10167
G1 X99.276 Y118.95 E16.12198
G1 X98.751 Y118.796 E16.14018
G1 X98.204 Y118.249 E16.16591
G1 X98.054 Y117.737 E16.18366
G1 X98.213 Y117.193 E16.20251
G1 X98.697 Y116.682 E16.22592
G0 F6000 X98.911 Y117.037
G1 F1200 X99.263 Y116.939 E16.23807
G1 X99.615 Y117.037 E16.25022
G1 X99.954 Y117.395 E16.26662
G1 X100.059 Y117.754 E16.27906
G1 X99.953 Y118.13 E16.29205
G1 X99.655 Y118.428 E16.30607
G1 X99.279 Y118.534 E16.31906
G1 X98.962 Y118.441 E16.33005
G1 X98.559 Y118.038 E16.34901
G1 X98.471 Y117.738 E16.35941
G1 X98.571 Y117.396 E16.37126
G1 X98.911 Y117.037 E16.3877
G0 F6000 X99.126 Y117.392
G1 F1200 X99.263 Y117.354 E16.39243
G1 X99.4 Y117.392 E16.39716
G1 X99.597 Y117.601 E16.40671
G1 X99.643 Y117.757 E16.41212
G1 X99.597 Y117.92 E16.41776
G1 X99.445 Y118.072 E16.42491
G1 X99.282 Y118.118 E16.43054
G1 X99.173 Y118.086 E16.43432
G1 X98.914 Y117.827 E16.4465
G1 X98.888 Y117.737 E16.44962
G1 X98.927 Y117.602 E16.45429
G1 X99.126 Y117.392 E16.46391
G1 F2700 E11.46391
G0 F6000 X104.472 Y109.897
G0 X130.528 Y109.897
G0 X131.022 Y117.651
G1 F2700 E16.46391
G1 F1200 X131.445 Y116.204 E16.51405
G1 X132.54 Y115.05 E16.56696
G1 X134.05 Y114.626 E16.61913
G1 X135.56 Y115.05 E16.6713
G1 X136.655 Y116.204 E16.72421
G1 X137.076 Y117.649 E16.77427
G1 X136.653 Y119.163 E16.82655
G1 X135.562 Y120.254 E16.87787
G1 X134.048 Y120.677 E16.93015
G1 X132.603 Y120.254 E16.98023
G1 X131.447 Y119.098 E17.0346
G1 X131.022 Y117.651 E17.08476
G0 F6000 X131.439 Y117.65
G1 F1200 X131.802 Y116.408 E17.1278
G1 X132.754 Y115.405 E17.1738
G1 X134.05 Y115.041 E17.21857
G1 X135.346 Y115.405 E17.26334
G1 X136.298 Y116.408 E17.30934
G1 X136.66 Y117.651 E17.3524
G1 X136.296 Y118.954 E17.39739
G1 X135.353 Y119.897 E17.44175
G1 X134.051 Y120.261 E17.48671
G1 X132.814 Y119.899 E17.52958
G1 X131.802 Y118.887 E17.57718
G1 X131.439 Y117.65 E17.62006
G0 F6000 X131.856 Y117.65
G1 F1200 X132.16 Y116.612 E17.65604
G1 X132.968 Y115.761 E17.69507
G1 X134.05 Y115.457 E17.73245
G1 X135.132 Y115.761 E17.76983
G1 X135.94 Y116.612 E17.80886
G1 X136.244 Y117.655 E17.84499
G1 X135.94 Y118.744 E17.8826
G1 X135.143 Y119.541 E17.92009
G1 X134.055 Y119.845 E17.95766
G1 X133.025 Y119.544 E17.99335
G1 X132.157 Y118.676 E18.03418
G1 X131.856 Y117.65 E18.06974
G0 F6000 X132.273 Y117.651
G1 F1200 X132.516 Y116.82 E18.09854
G1 X133.184 Y116.115 E18.13084
G1 X134.05 Y115.872 E18.16076
G1 X134.916 Y116.115 E18.19067
G1 X135.584 Y116.82 E18.22297
G1 X135.828 Y117.657 E18.25197
G1 X135.583 Y118.535 E18.28229
G1 X134.934 Y119.184 E18.31282
G1 X134.058 Y119.429 E18.34307
G1 X133.235 Y119.188 E18.37159
G1 X132.511 Y118.464 E18.40565
G1 X132.273 Y117.651 E18.43382
G0 F6000 X132.69 Y117.651
G1 F1200 X132.873 Y117.024 E18.45555
G1 X133.398 Y116.471 E18.48091
G1 X134.05 Y116.288 E18.50343
G1 X134.702 Y116.471 E18.52596
G1 X135.227 Y117.024 E18.55132
G1 X135.412 Y117.658 E18.57328
G1 X135.225 Y118.327 E18.59639
G1 X134.726 Y118.826 E18.61986
G1 X134.059 Y119.012 E18.64289
G1 X133.446 Y118.833 E18.66413
G1 X132.866 Y118.253 E18.69141
G1 X132.69 Y117.651 E18.71227
G0 F6000 X133.106 Y117.651
G1 F1200 X133.23 Y117.228 E18.72693
G1 X133.611 Y116.826 E18.74535
G1 X134.05 Y116.703 E18.76052
G1 X134.489 Y116.826 E18.77568
G1 X134.87 Y117.229 E18.79413
G1 X134.996 Y117.661 E18.80909
G1 X134.869 Y118.117 E18.82484
G1 X134.516 Y118.47 E18.84144
G1 X134.062 Y118.596 E18.85711
G1 X133.657 Y118.478 E18.87114
G1 X133.221 Y118.042 E18.89165
G1 X133.106 Y117.651 E18.90521
G0 F6000 X133.523 Y117.65
G1 F1200 X133.587 Y117.433 E18.91273
G1 X133.825 Y117.182 E18.92424
G1 X134.05 Y117.118 E18.93202
G1 X134.275 Y117.182 E18.9398
G1 X134.513 Y117.433 E18.9513
G1 X134.58 Y117.663 E18.95927
G1 X134.511 Y117.911 E18.96783
G1 X134.31 Y118.112 E18.97729
G1 X134.063 Y118.181 E18.98582
G1 X133.866 Y118.123 E18.99265
G1 X133.578 Y117.835 E19.00619
G1 X133.523 Y117.65 E19.01261
G0 F6000 X133.945 Y117.636
G1 F1200 X134.04 Y117.536 E19.0172
G1 X134.05 Y117.534 E19.01754
G1 X134.06 Y117.536 E19.01788
G1 X134.156 Y117.638 E19.02254
G1 X134.164 Y117.666 E19.02351
G1 X134.154 Y117.702 E19.02475
G1 X134.101 Y117.755 E19.02724
G1 X134.072 Y117.763 E19.02824
G1 X133.945 Y117.636 E19.03422
G1 F2700 E14.03422
;MESH:OTG GPS support top.stl
G0 F6000 X133.945 Y109.713
G0 X134.82 Y108.448
;TYPE:WALL-INNER
G1 F2700 E19.03422
G1 F1200 X134.82 Y97.552 E19.39662
G1 X100.18 Y97.552 E20.54875
G1 X100.18 Y108.448 E20.91115
G1 X134.82 Y108.448 E22.06328
G0 F6000 X135.22 Y108.848
;TYPE:WALL-OUTER
G1 F1200 X135.22 Y97.152 E22.45229
G1 X99.78 Y97.152 E23.63103
G1 X99.78 Y108.848 E24.02004
G1 X135.22 Y108.848 E25.19878
G0 F6000 X134.95 Y108.578
G0 X134.72 Y108.088
G0 X134.46 Y108.088
;TYPE:SKIN
G1 F1200 X100.54 Y108.088 E26.32697
G1 X100.54 Y97.912 E26.66542
G1 X134.46 Y97.912 E27.7936
G1 X134.46 Y108.088 E28.13206
G0 F6000 X134.72 Y108.088
G0 X134.648 Y97.724
G0 X133.751 Y97.652
G0 X133.751 Y98.112
G1 F1200 X134.26 Y98.622 E28.15603
G0 F6000 X134.26 Y99.187
G1 F1200 X133.185 Y98.112 E28.20659
G0 F6000 X132.619 Y98.112
G1 F1200 X134.26 Y99.753 E28.28378
G0 F6000 X134.26 Y100.319
G1 F1200 X132.054 Y98.112 E28.38756
G0 F6000 X131.488 Y98.112
G1 F1200 X134.26 Y100.884 E28.51795
G0 F6000 X134.26 Y101.45
G1 F1200 X130.922 Y98.112 E28.67496
G0 F6000 X130.357 Y98.112
G1 F1200 X134.26 Y102.016 E28.85857
G0 F6000 X134.26 Y102.581
G1 F1200 X129.791 Y98.112 E29.06878
G0 F6000 X129.225 Y98.112
G1 F1200 X134.26 Y103.147 E29.30561
G0 F6000 X134.26 Y103.713
G1 F1200 X128.659 Y98.112 E29.56906
G0 F6000 X128.094 Y98.112
G1 F1200 X134.26 Y104.278 E29.85909
G0 F6000 X134.26 Y104.844
G1 F1200 X127.528 Y98.112 E30.17574
G0 F6000 X126.962 Y98.112
G1 F1200 X134.26 Y105.41 E30.51902
G0 F6000 X134.26 Y105.976
G1 F1200 X126.397 Y98.112 E30.88889
G0 F6000 X125.831 Y98.112
G1 F1200 X134.26 Y106.541 E31.28537
G0 F6000 X134.26 Y107.107
G1 F1200 X125.265 Y98.112 E31.70847
G0 F6000 X124.7 Y98.112
G1 F1200 X134.26 Y107.673 E32.15816
G0 F6000 X133.909 Y107.888
G1 F1200 X124.134 Y98.112 E32.61797
G0 F6000 X123.568 Y98.112
G1 F1200 X133.343 Y107.888 E33.07778
